;FLAVOR:Marlin
;TIME:1687
;Filament used: 0.505982m
;Layer height: 0.2
;MINX:120.245
;MINY:120.245
;MINZ:0.25
;MAXX:179.755
;MAXY:181.073
;MAXZ:10.05
;TARGET_MACHINE.NAME:Syncraft X1
;Generated with Cura_SteamEngine 5.8.1
M82 ;absolute extrusion mode
PARAMETERS_MATCH MACHINE='Syncraft X1' NOZZLE='Standard 0.4mm' MATERIAL='PETG'
 M900 P0.4 S100
CTEMP MAT='PETG' FAM='0'
BREAK_CLEAN P=215
G21 ; set units to millimeters
G90 ; use absolute positioning
M82 ; absolute extrusion mode
M104 S150 ; set extruder temp
M140 S75 ; set bed temp
G28 Z ; home z
M109 S150
G28 XY; home XY
START_GCODE
M109 S255 ; wait for extruder temp
_primeRoutine
G92 E0
G92 E0
G1 F2400 E-10
;LAYER_COUNT:50
;LAYER:0
M106 S51
G1 F600 Z2.25
;MESH:backlash_test.stl
G0 F9000 X179.755 Y179.755 Z2.25
;TYPE:WALL-OUTER
G1 F600 Z0.25
G1 F2400 E0
G1 F1800 X179.755 Y120.245 E0.92072
G1 X120.245 Y120.245 E1.84144
G1 X120.245 Y179.755 E2.76216
G1 X179.755 Y179.755 E3.68288
G0 F9000 X179.755 Y179.555
G0 X179.405 Y179.405
;TYPE:WALL-INNER
G1 F1800 X179.405 Y120.595 E4.47903
G1 X120.595 Y120.595 E5.27519
G1 X120.595 Y179.405 E6.07134
G1 X179.405 Y179.405 E6.86749
G0 F9000 X179.147 Y179.147
;TYPE:SKIN
G1 F1800 X179.147 Y120.849 E7.8966
G1 X120.849 Y120.849 E8.92571
G1 X120.849 Y179.147 E9.95482
G1 X179.147 Y179.147 E10.98392
G1 F2400 E0.98392
G0 F9000 X179.415 Y179.147
G0 X179.415 Y121.113
G0 X178.982 Y121.113
G1 F2400 E10.98392
G1 F1800 X178.884 Y121.014 E10.98638
G0 F9000 X178.417 Y121.014
G1 F1800 X178.982 Y121.579 E11.00049
G0 F9000 X178.982 Y122.046
G1 F1800 X177.95 Y121.014 E11.02625
G0 F9000 X177.484 Y121.014
G1 F1800 X178.982 Y122.513 E11.06366
G0 F9000 X178.982 Y122.979
G1 F1800 X177.017 Y121.014 E11.11271
G0 F9000 X176.55 Y121.014
G1 F1800 X178.982 Y123.446 E11.17343
G0 F9000 X178.982 Y123.913
G1 F1800 X176.084 Y121.014 E11.24579
G0 F9000 X175.617 Y121.014
G1 F1800 X178.982 Y124.379 E11.32979
G0 F9000 X178.982 Y124.846
G1 F1800 X175.15 Y121.014 E11.42546
G0 F9000 X174.684 Y121.014
G1 F1800 X178.982 Y125.313 E11.53277
G0 F9000 X178.982 Y125.779
G1 F1800 X174.217 Y121.014 E11.65172
G0 F9000 X173.75 Y121.014
G1 F1800 X178.982 Y126.246 E11.78234
G0 F9000 X178.982 Y126.713
G1 F1800 X173.284 Y121.014 E11.9246
G0 F9000 X172.817 Y121.014
G1 F1800 X178.982 Y127.18 E12.07851
G0 F9000 X178.982 Y127.646
G1 F1800 X172.35 Y121.014 E12.24408
G0 F9000 X171.884 Y121.014
G1 F1800 X178.982 Y128.113 E12.42129
G0 F9000 X178.982 Y128.58
G1 F1800 X171.417 Y121.014 E12.61016
G0 F9000 X170.95 Y121.014
G1 F1800 X178.982 Y129.046 E12.81067
G0 F9000 X178.982 Y129.513
G1 F1800 X170.483 Y121.014 E13.02284
G0 F9000 X170.017 Y121.014
G1 F1800 X178.982 Y129.98 E13.24666
G0 F9000 X178.982 Y130.446
G1 F1800 X169.55 Y121.014 E13.48213
G0 F9000 X169.083 Y121.014
G1 F1800 X178.982 Y130.913 E13.72925
G0 F9000 X178.982 Y131.38
G1 F1800 X168.617 Y121.014 E13.98802
G0 F9000 X168.15 Y121.014
G1 F1800 X178.982 Y131.846 E14.25843
G0 F9000 X178.982 Y132.313
G1 F1800 X167.683 Y121.014 E14.54051
G0 F9000 X167.217 Y121.014
G1 F1800 X178.982 Y132.78 E14.83423
G0 F9000 X178.982 Y133.246
G1 F1800 X166.75 Y121.014 E15.13959
G0 F9000 X166.283 Y121.014
G1 F1800 X178.982 Y133.713 E15.45662
G0 F9000 X178.982 Y134.18
G1 F1800 X165.817 Y121.014 E15.78529
G0 F9000 X165.35 Y121.014
G1 F1800 X178.982 Y134.647 E16.12561
G0 F9000 X178.982 Y135.113
G1 F1800 X164.883 Y121.014 E16.47759
G0 F9000 X164.416 Y121.014
G1 F1800 X178.982 Y135.58 E16.84122
G0 F9000 X178.982 Y136.047
G1 F1800 X163.95 Y121.014 E17.2165
G0 F9000 X163.483 Y121.014
G1 F1800 X178.982 Y136.513 E17.60342
G0 F9000 X178.982 Y136.98
G1 F1800 X163.016 Y121.014 E18.002
G0 F9000 X162.55 Y121.014
G1 F1800 X178.982 Y137.447 E18.41223
G0 F9000 X178.982 Y137.913
G1 F1800 X162.083 Y121.014 E18.83411
G0 F9000 X161.616 Y121.014
G1 F1800 X178.982 Y138.38 E19.26764
G0 F9000 X178.982 Y138.847
G1 F1800 X161.15 Y121.014 E19.71282
G0 F9000 X160.683 Y121.014
G1 F1800 X178.982 Y139.313 E20.16964
G0 F9000 X178.982 Y139.78
G1 F1800 X160.216 Y121.014 E20.63812
G0 F9000 X159.75 Y121.014
G1 F1800 X178.982 Y140.247 E21.11825
G0 F9000 X178.982 Y140.714
G1 F1800 X159.283 Y121.014 E21.61004
G0 F9000 X158.816 Y121.014
G1 F1800 X178.982 Y141.18 E22.11347
G0 F9000 X178.982 Y141.647
G1 F1800 X158.349 Y121.014 E22.62856
G0 F9000 X157.883 Y121.014
G1 F1800 X178.982 Y142.114 E23.1553
G0 F9000 X178.982 Y142.58
G1 F1800 X157.416 Y121.014 E23.69369
G0 F9000 X156.949 Y121.014
G1 F1800 X178.982 Y143.047 E24.24373
G0 F9000 X178.982 Y143.514
G1 F1800 X156.483 Y121.014 E24.80542
G0 F9000 X156.016 Y121.014
G1 F1800 X178.982 Y143.98 E25.37875
G0 F9000 X178.982 Y144.447
G1 F1800 X155.549 Y121.014 E25.96374
G0 F9000 X155.083 Y121.014
G1 F1800 X178.982 Y144.914 E26.56038
G0 F9000 X178.982 Y145.38
G1 F1800 X154.616 Y121.014 E27.16866
G0 F9000 X154.149 Y121.014
G1 F1800 X178.982 Y145.847 E27.7886
G0 F9000 X178.982 Y146.314
G1 F1800 X153.683 Y121.014 E28.42019
G0 F9000 X153.216 Y121.014
G1 F1800 X178.982 Y146.781 E29.06344
G0 F9000 X178.982 Y147.247
G1 F1800 X152.749 Y121.014 E29.71833
G0 F9000 X152.283 Y121.014
G1 F1800 X178.982 Y147.714 E30.38487
G0 F9000 X178.982 Y148.181
G1 F1800 X151.816 Y121.014 E31.06307
G0 F9000 X151.349 Y121.014
G1 F1800 X178.982 Y148.647 E31.75291
G0 F9000 X178.982 Y149.114
G1 F1800 X150.882 Y121.014 E32.45441
G0 F9000 X150.416 Y121.014
G1 F1800 X178.982 Y149.581 E33.16756
G0 F9000 X178.982 Y150.047
G1 F1800 X149.949 Y121.014 E33.89235
G0 F9000 X149.482 Y121.014
G1 F1800 X178.982 Y150.514 E34.6288
G0 F9000 X178.982 Y150.981
G1 F1800 X149.016 Y121.014 E35.3769
G0 F9000 X148.549 Y121.014
G1 F1800 X178.982 Y151.447 E36.13664
G0 F9000 X178.982 Y151.914
G1 F1800 X148.082 Y121.014 E36.90804
G0 F9000 X147.616 Y121.014
G1 F1800 X178.982 Y152.381 E37.69109
G0 F9000 X178.982 Y152.847
G1 F1800 X147.149 Y121.014 E38.48578
G0 F9000 X146.682 Y121.014
G1 F1800 X178.982 Y153.314 E39.29214
G0 F9000 X178.982 Y153.781
G1 F1800 X146.216 Y121.014 E40.11013
G0 F9000 X145.749 Y121.014
G1 F1800 X178.982 Y154.248 E40.93979
G0 F9000 X178.982 Y154.714
G1 F1800 X145.282 Y121.014 E41.78109
G0 F9000 X144.815 Y121.014
G1 F1800 X178.982 Y155.181 E42.63405
G0 F9000 X178.982 Y155.648
G1 F1800 X144.349 Y121.014 E43.49866
G0 F9000 X143.882 Y121.014
G1 F1800 X178.982 Y156.114 E44.37491
G0 F9000 X178.982 Y156.581
G1 F1800 X143.415 Y121.014 E45.26282
G0 F9000 X142.949 Y121.014
G1 F1800 X178.982 Y157.048 E46.16238
G0 F9000 X178.982 Y157.514
G1 F1800 X142.482 Y121.014 E47.07358
G0 F9000 X142.015 Y121.014
G1 F1800 X178.982 Y157.981 E47.99644
G0 F9000 X178.982 Y158.448
G1 F1800 X141.549 Y121.014 E48.93095
G0 F9000 X141.082 Y121.014
G1 F1800 X178.982 Y158.914 E49.8771
G0 F9000 X178.982 Y159.381
G1 F1800 X140.615 Y121.014 E50.83491
G0 F9000 X140.149 Y121.014
G1 F1800 X178.982 Y159.848 E51.80437
G0 F9000 X178.982 Y160.315
G1 F1800 X139.682 Y121.014 E52.78548
G0 F9000 X139.215 Y121.014
G1 F1800 X178.982 Y160.781 E53.77824
G0 F9000 X178.982 Y161.248
G1 F1800 X138.748 Y121.014 E54.78266
G0 F9000 X138.282 Y121.014
G1 F1800 X178.982 Y161.715 E55.79873
G0 F9000 X178.982 Y162.181
G1 F1800 X137.815 Y121.014 E56.82644
G0 F9000 X137.348 Y121.014
G1 F1800 X178.982 Y162.648 E57.86581
G0 F9000 X178.982 Y163.115
G1 F1800 X136.882 Y121.014 E58.91683
G0 F9000 X136.415 Y121.014
G1 F1800 X178.982 Y163.581 E59.97949
G0 F9000 X178.982 Y164.048
G1 F1800 X135.948 Y121.014 E61.05381
G0 F9000 X135.482 Y121.014
G1 F1800 X178.982 Y164.515 E62.13977
G0 F9000 X178.982 Y164.981
G1 F1800 X135.015 Y121.014 E63.23739
G0 F9000 X134.548 Y121.014
G1 F1800 X178.982 Y165.448 E64.34666
G0 F9000 X178.982 Y165.915
G1 F1800 X134.082 Y121.014 E65.46757
G0 F9000 X133.615 Y121.014
G1 F1800 X178.982 Y166.382 E66.60015
G0 F9000 X178.982 Y166.848
G1 F1800 X133.148 Y121.014 E67.74437
G0 F9000 X132.682 Y121.014
G1 F1800 X178.982 Y167.315 E68.90023
G0 F9000 X178.982 Y167.782
G1 F1800 X132.215 Y121.014 E70.06776
G0 F9000 X131.748 Y121.014
G1 F1800 X178.982 Y168.248 E71.24693
G0 F9000 X178.982 Y168.715
G1 F1800 X131.281 Y121.014 E72.43776
G0 F9000 X130.815 Y121.014
G1 F1800 X178.982 Y169.182 E73.64023
G0 F9000 X178.982 Y169.648
G1 F1800 X130.348 Y121.014 E74.85436
G0 F9000 X129.881 Y121.014
G1 F1800 X178.982 Y170.115 E76.08014
G0 F9000 X178.982 Y170.582
G1 F1800 X129.415 Y121.014 E77.31756
G0 F9000 X128.948 Y121.014
G1 F1800 X178.982 Y171.048 E78.56663
G0 F9000 X178.982 Y171.515
G1 F1800 X128.481 Y121.014 E79.82736
G0 F9000 X128.015 Y121.014
G1 F1800 X178.982 Y171.982 E81.09974
G0 F9000 X178.982 Y172.448
G1 F1800 X127.548 Y121.014 E82.38376
G0 F9000 X127.081 Y121.014
G1 F1800 X178.982 Y172.915 E83.67944
G0 F9000 X178.982 Y173.382
G1 F1800 X126.615 Y121.014 E84.98676
G0 F9000 X126.148 Y121.014
G1 F1800 X178.982 Y173.849 E86.30575
G0 F9000 X178.982 Y174.315
G1 F1800 X125.681 Y121.014 E87.63638
G0 F9000 X125.214 Y121.014
G1 F1800 X178.982 Y174.782 E88.97867
G0 F9000 X178.982 Y175.249
G1 F1800 X124.748 Y121.014 E90.3326
G0 F9000 X124.281 Y121.014
G1 F1800 X178.982 Y175.715 E91.69818
G0 F9000 X178.982 Y176.182
G1 F1800 X123.814 Y121.014 E93.07542
G0 F9000 X123.348 Y121.014
G1 F1800 X178.982 Y176.649 E94.46431
G0 F9000 X178.982 Y177.115
G1 F1800 X122.881 Y121.014 E95.86484
G0 F9000 X122.414 Y121.014
G1 F1800 X178.982 Y177.582 E97.27703
G0 F9000 X178.982 Y178.049
G1 F1800 X121.948 Y121.014 E98.70086
G0 F9000 X121.481 Y121.014
G1 F1800 X178.982 Y178.515 E100.13634
G0 F9000 X178.982 Y178.982
G1 F1800 X121.014 Y121.014 E101.58348
G0 F9000 X121.014 Y121.48
G1 F1800 X178.515 Y178.982 E103.01897
G0 F9000 X178.049 Y178.982
G1 F1800 X121.014 Y121.947 E104.44282
G0 F9000 X121.014 Y122.414
G1 F1800 X177.582 Y178.982 E105.85501
G0 F9000 X177.115 Y178.982
G1 F1800 X121.014 Y122.88 E107.25555
G0 F9000 X121.014 Y123.347
G1 F1800 X176.649 Y178.982 E108.64445
G0 F9000 X176.182 Y178.982
G1 F1800 X121.014 Y123.814 E110.02169
G0 F9000 X121.014 Y124.28
G1 F1800 X175.715 Y178.982 E111.38728
G0 F9000 X175.249 Y178.982
G1 F1800 X121.014 Y124.747 E112.74123
G0 F9000 X121.014 Y125.214
G1 F1800 X174.782 Y178.982 E114.08352
G0 F9000 X174.315 Y178.982
G1 F1800 X121.014 Y125.68 E115.41416
G0 F9000 X121.014 Y126.147
G1 F1800 X173.849 Y178.982 E116.73316
G0 F9000 X173.382 Y178.982
G1 F1800 X121.014 Y126.614 E118.04049
G0 F9000 X121.014 Y127.081
G1 F1800 X172.915 Y178.982 E119.33617
G0 F9000 X172.448 Y178.982
G1 F1800 X121.014 Y127.547 E120.62021
G0 F9000 X121.014 Y128.014
G1 F1800 X171.982 Y178.982 E121.8926
G0 F9000 X171.515 Y178.982
G1 F1800 X121.014 Y128.481 E123.15333
G0 F9000 X121.014 Y128.947
G1 F1800 X171.048 Y178.982 E124.40241
G0 F9000 X170.582 Y178.982
G1 F1800 X121.014 Y129.414 E125.63985
G0 F9000 X121.014 Y129.881
G1 F1800 X170.115 Y178.982 E126.86563
G0 F9000 X169.648 Y178.982
G1 F1800 X121.014 Y130.347 E128.07976
G0 F9000 X121.014 Y130.814
G1 F1800 X169.182 Y178.982 E129.28225
G0 F9000 X168.715 Y178.982
G1 F1800 X121.014 Y131.281 E130.47308
G0 F9000 X121.014 Y131.747
G1 F1800 X168.248 Y178.982 E131.65226
G0 F9000 X167.782 Y178.982
G1 F1800 X121.014 Y132.214 E132.8198
G0 F9000 X121.014 Y132.681
G1 F1800 X167.315 Y178.982 E133.97568
G0 F9000 X166.848 Y178.982
G1 F1800 X121.014 Y133.147 E135.11991
G0 F9000 X121.014 Y133.614
G1 F1800 X166.382 Y178.982 E136.2525
G0 F9000 X165.915 Y178.982
G1 F1800 X121.014 Y134.081 E137.37343
G0 F9000 X121.014 Y134.548
G1 F1800 X165.448 Y178.982 E138.4827
G0 F9000 X164.981 Y178.982
G1 F1800 X121.014 Y135.014 E139.58032
G0 F9000 X121.014 Y135.481
G1 F1800 X164.515 Y178.982 E140.6663
G0 F9000 X164.048 Y178.982
G1 F1800 X121.014 Y135.948 E141.74062
G0 F9000 X121.014 Y136.414
G1 F1800 X163.581 Y178.982 E142.80329
G0 F9000 X163.115 Y178.982
G1 F1800 X121.014 Y136.881 E143.85432
G0 F9000 X121.014 Y137.348
G1 F1800 X162.648 Y178.982 E144.89369
G0 F9000 X162.181 Y178.982
G1 F1800 X121.014 Y137.814 E145.92142
G0 F9000 X121.014 Y138.281
G1 F1800 X161.715 Y178.982 E146.93749
G0 F9000 X161.248 Y178.982
G1 F1800 X121.014 Y138.748 E147.94191
G0 F9000 X121.014 Y139.214
G1 F1800 X160.781 Y178.982 E148.93469
G0 F9000 X160.315 Y178.982
G1 F1800 X121.014 Y139.681 E149.91582
G0 F9000 X121.014 Y140.148
G1 F1800 X159.848 Y178.982 E150.88528
G0 F9000 X159.381 Y178.982
G1 F1800 X121.014 Y140.615 E151.8431
G0 F9000 X121.014 Y141.081
G1 F1800 X158.914 Y178.982 E152.78926
G0 F9000 X158.448 Y178.982
G1 F1800 X121.014 Y141.548 E153.72378
G0 F9000 X121.014 Y142.015
G1 F1800 X157.981 Y178.982 E154.64664
G0 F9000 X157.514 Y178.982
G1 F1800 X121.014 Y142.481 E155.55786
G0 F9000 X121.014 Y142.948
G1 F1800 X157.048 Y178.982 E156.45742
G0 F9000 X156.581 Y178.982
G1 F1800 X121.014 Y143.415 E157.34534
G0 F9000 X121.014 Y143.881
G1 F1800 X156.114 Y178.982 E158.2216
G0 F9000 X155.648 Y178.982
G1 F1800 X121.014 Y144.348 E159.08622
G0 F9000 X121.014 Y144.815
G1 F1800 X155.181 Y178.982 E159.93918
G0 F9000 X154.714 Y178.982
G1 F1800 X121.014 Y145.281 E160.78049
G0 F9000 X121.014 Y145.748
G1 F1800 X154.248 Y178.982 E161.61016
G0 F9000 X153.781 Y178.982
G1 F1800 X121.014 Y146.215 E162.42817
G0 F9000 X121.014 Y146.682
G1 F1800 X153.314 Y178.982 E163.23452
G0 F9000 X152.847 Y178.982
G1 F1800 X121.014 Y147.148 E164.02923
G0 F9000 X121.014 Y147.615
G1 F1800 X152.381 Y178.982 E164.81229
G0 F9000 X151.914 Y178.982
G1 F1800 X121.014 Y148.082 E165.58369
G0 F9000 X121.014 Y148.548
G1 F1800 X151.447 Y178.982 E166.34345
G0 F9000 X150.981 Y178.982
G1 F1800 X121.014 Y149.015 E167.09156
G0 F9000 X121.014 Y149.482
G1 F1800 X150.514 Y178.982 E167.82801
G0 F9000 X150.047 Y178.982
G1 F1800 X121.014 Y149.948 E168.55281
G0 F9000 X121.014 Y150.415
G1 F1800 X149.581 Y178.982 E169.26597
G0 F9000 X149.114 Y178.982
G1 F1800 X121.014 Y150.882 E169.96747
G0 F9000 X121.014 Y151.348
G1 F1800 X148.647 Y178.982 E170.65733
G0 F9000 X148.181 Y178.982
G1 F1800 X121.014 Y151.815 E171.33554
G0 F9000 X121.014 Y152.282
G1 F1800 X147.714 Y178.982 E172.00209
G0 F9000 X147.247 Y178.982
G1 F1800 X121.014 Y152.748 E172.65699
G0 F9000 X121.014 Y153.215
G1 F1800 X146.781 Y178.982 E173.30025
G0 F9000 X146.314 Y178.982
G1 F1800 X121.014 Y153.682 E173.93185
G0 F9000 X121.014 Y154.149
G1 F1800 X145.847 Y178.982 E174.5518
G0 F9000 X145.38 Y178.982
G1 F1800 X121.014 Y154.615 E175.16009
G0 F9000 X121.014 Y155.082
G1 F1800 X144.914 Y178.982 E175.75674
G0 F9000 X144.447 Y178.982
G1 F1800 X121.014 Y155.549 E176.34173
G0 F9000 X121.014 Y156.015
G1 F1800 X143.98 Y178.982 E176.91508
G0 F9000 X143.514 Y178.982
G1 F1800 X121.014 Y156.482 E177.47678
G0 F9000 X121.014 Y156.949
G1 F1800 X143.047 Y178.982 E178.02682
G0 F9000 X142.58 Y178.982
G1 F1800 X121.014 Y157.415 E178.56522
G0 F9000 X121.014 Y157.882
G1 F1800 X142.114 Y178.982 E179.09197
G0 F9000 X141.647 Y178.982
G1 F1800 X121.014 Y158.349 E179.60706
G0 F9000 X121.014 Y158.815
G1 F1800 X141.18 Y178.982 E180.1105
G0 F9000 X140.714 Y178.982
G1 F1800 X121.014 Y159.282 E180.6023
G0 F9000 X121.014 Y159.749
G1 F1800 X140.247 Y178.982 E181.08245
G0 F9000 X139.78 Y178.982
G1 F1800 X121.014 Y160.216 E181.55093
G0 F9000 X121.014 Y160.682
G1 F1800 X139.313 Y178.982 E182.00777
G0 F9000 X138.847 Y178.982
G1 F1800 X121.014 Y161.149 E182.45296
G0 F9000 X121.014 Y161.616
G1 F1800 X138.38 Y178.982 E182.88649
G0 F9000 X137.913 Y178.982
G1 F1800 X121.014 Y162.082 E183.30838
G0 F9000 X121.014 Y162.549
G1 F1800 X137.447 Y178.982 E183.71862
G0 F9000 X136.98 Y178.982
G1 F1800 X121.014 Y163.016 E184.1172
G0 F9000 X121.014 Y163.482
G1 F1800 X136.513 Y178.982 E184.50414
G0 F9000 X136.047 Y178.982
G1 F1800 X121.014 Y163.949 E184.87943
G0 F9000 X121.014 Y164.416
G1 F1800 X135.58 Y178.982 E185.24306
G0 F9000 X135.113 Y178.982
G1 F1800 X121.014 Y164.882 E185.59504
G0 F9000 X121.014 Y165.349
G1 F1800 X134.647 Y178.982 E185.93538
G0 F9000 X134.18 Y178.982
G1 F1800 X121.014 Y165.816 E186.26407
G0 F9000 X121.014 Y166.283
G1 F1800 X133.713 Y178.982 E186.58109
G0 F9000 X133.246 Y178.982
G1 F1800 X121.014 Y166.749 E186.88647
G0 F9000 X121.014 Y167.216
G1 F1800 X132.78 Y178.982 E187.1802
G0 F9000 X132.313 Y178.982
G1 F1800 X121.014 Y167.683 E187.46227
G0 F9000 X121.014 Y168.149
G1 F1800 X131.846 Y178.982 E187.7327
G0 F9000 X131.38 Y178.982
G1 F1800 X121.014 Y168.616 E187.99148
G0 F9000 X121.014 Y169.083
