;FLAVOR:Marlin
;TIME:7093
;Filament used: 3.33142m, 0m
;Layer height: 0.2
;MINX:33.776
;MINY:108.776
;MINZ:0.25
;MAXX:150
;MAXY:191.226
;MAXZ:90.05
;TARGET_MACHINE.NAME:Syncraft IDEX
;Generated with Cura_SteamEngine 5.8.1
T0
M82 ;absolute extrusion mode
;Sliced at: Fri 25-04-2025 12:04:54
;Filament weight = [26.9906105078125, 0.0]
;Nozzle diameter = 0.4
;Filament type = PETG
;Filament name = PETG
PARAMETERS_MATCH MACHINE='Syncraft IDEX' NZ0='Standard 0.4mm' NZ1='Standard 0.4mm' MAT0='PETG' MAT1='PETG' F='[26.9906105078125, 0.0]' ENABLED='1' INITIAL_EXT='0'
M605 S1
M900 P0.4 S60
CTEMP MAT='PETG' FAM='0'
BREAK_CLEAN P=215
G21 ; set units to millimeters
G90 ; use absolute positioning
M82 ; absolute extrusion mode
M104 T0 S150 ; set extruder temp
M140 S75 ; set bed temp
G28 Z ; home z
M109 T0 S150
G28 XY; home XY
START_GCODE
set_temperature_layer L0=230 L1=255  ; wait for extruder temp
PRIME_ROUTINE
G92 E0
T0
G92 E0
G1 F2310 E-8.15
;LAYER_COUNT:450
G0 F18000 X150 Y150
;LAYER:0
M107
G0 F9000 X116.226 Y149.067 Z0.25
;TYPE:SKIRT
G1 F1140 E0
G1 F1440 X115.375 Y153.851 E0.0914
G1 X105.6 Y177.447 E0.57184
G1 X104.803 Y178.497 E0.59663
G1 X100.832 Y181.273 E0.68777
G1 X77.239 Y191.046 E1.16814
G1 X75.933 Y191.226 E1.19294
G1 X71.151 Y190.375 E1.2843
G1 X47.555 Y180.6 E1.76473
G1 X46.505 Y179.803 E1.78953
G1 X43.727 Y175.827 E1.88077
G1 X33.956 Y152.239 E2.36103
G1 X33.776 Y150.933 E2.38583
G1 X34.629 Y146.145 E2.47731
G1 X44.402 Y122.555 E2.95763
G1 X45.198 Y121.505 E2.98241
G1 X49.17 Y118.728 E3.07358
G1 X72.763 Y108.956 E3.55394
G1 X74.069 Y108.776 E3.57874
G1 X78.852 Y109.628 E3.67012
G1 X102.447 Y119.402 E4.15053
G1 X103.497 Y120.198 E4.17532
G1 X106.274 Y124.17 E4.26648
G1 X116.046 Y147.761 E4.74681
G1 X116.226 Y149.067 E4.77161
G0 F9000 X115.821 Y149.058
G1 F1440 X114.989 Y153.737 E4.861
G1 X105.25 Y177.246 E5.33966
G1 X104.521 Y178.206 E5.36234
G1 X100.64 Y180.919 E5.45141
G1 X77.131 Y190.657 E5.93006
G1 X75.942 Y190.821 E5.95264
G1 X71.265 Y189.989 E6.042
G1 X47.756 Y180.25 E6.52066
G1 X46.796 Y179.521 E6.54334
G1 X44.081 Y175.635 E6.63251
G1 X34.345 Y152.131 E7.11106
G1 X34.181 Y150.942 E7.13364
G1 X35.015 Y146.259 E7.22311
G1 X44.752 Y122.756 E7.70166
G1 X45.48 Y121.796 E7.72432
G1 X49.362 Y119.082 E7.81342
G1 X72.871 Y109.345 E8.29207
G1 X74.06 Y109.181 E8.31464
G1 X78.738 Y110.014 E8.40402
G1 X102.246 Y119.752 E8.88266
G1 X103.206 Y120.48 E8.90532
G1 X105.92 Y124.362 E8.99442
G1 X115.657 Y147.869 E9.47304
G1 X115.821 Y149.058 E9.49561
G0 F9000 X115.416 Y149.049
G1 F1440 X114.603 Y153.623 E9.583
G1 X104.9 Y177.045 E10.05989
G1 X104.239 Y177.915 E10.08044
G1 X100.448 Y180.565 E10.16745
G1 X77.023 Y190.268 E10.64439
G1 X75.951 Y190.416 E10.66475
G1 X71.379 Y189.603 E10.7521
G1 X47.957 Y179.9 E11.22899
G1 X47.087 Y179.239 E11.24954
G1 X44.435 Y175.443 E11.33665
G1 X34.734 Y152.023 E11.81349
G1 X34.586 Y150.951 E11.83385
G1 X35.401 Y146.373 E11.92131
G1 X45.102 Y122.957 E12.39809
G1 X45.762 Y122.087 E12.41863
G1 X49.554 Y119.436 E12.50566
G1 X72.979 Y109.734 E12.9826
G1 X74.051 Y109.586 E13.00295
G1 X78.624 Y110.4 E13.09032
G1 X102.045 Y120.102 E13.56719
G1 X102.915 Y120.762 E13.58773
G1 X105.566 Y124.554 E13.67476
G1 X115.268 Y147.977 E14.15167
G1 X115.416 Y149.049 E14.17202
G0 F9000 X115.011 Y149.04
G1 F1440 X114.217 Y153.509 E14.2574
G1 X104.549 Y176.847 E14.73258
G1 X103.96 Y177.622 E14.75089
G1 X100.256 Y180.211 E14.8359
G1 X76.915 Y189.879 E15.31113
G1 X75.96 Y190.011 E15.32926
G1 X71.493 Y189.217 E15.41461
G1 X48.155 Y179.549 E15.88979
G1 X47.38 Y178.96 E15.9081
G1 X44.789 Y175.251 E15.9932
G1 X35.123 Y151.915 E16.46833
G1 X34.991 Y150.96 E16.48647
G1 X35.787 Y146.487 E16.57193
G1 X45.453 Y123.155 E17.04699
G1 X46.042 Y122.38 E17.0653
G1 X49.746 Y119.79 E17.15032
G1 X73.087 Y110.123 E17.62554
G1 X74.042 Y109.991 E17.64368
G1 X78.51 Y110.786 E17.72904
G1 X101.847 Y120.453 E18.2042
G1 X102.622 Y121.042 E18.22251
G1 X105.212 Y124.746 E18.30753
G1 X114.879 Y148.085 E18.78272
G1 X115.011 Y149.04 E18.80085
G0 F9000 X114.606 Y149.031
G1 F1440 X113.831 Y153.395 E18.88422
G1 X104.198 Y176.649 E19.35769
G1 X103.681 Y177.329 E19.37376
G1 X100.064 Y179.857 E19.45677
G1 X76.807 Y189.49 E19.93029
G1 X75.969 Y189.606 E19.9462
G1 X71.607 Y188.831 E20.02954
G1 X48.353 Y179.198 E20.503
G1 X47.673 Y178.681 E20.51907
G1 X45.143 Y175.059 E20.60218
G1 X35.512 Y151.807 E21.0756
G1 X35.396 Y150.969 E21.09151
G1 X36.173 Y146.601 E21.17497
G1 X45.804 Y123.353 E21.64831
G1 X46.321 Y122.673 E21.66438
G1 X49.938 Y120.144 E21.7474
G1 X73.195 Y110.512 E22.22091
G1 X74.033 Y110.396 E22.23683
G1 X78.396 Y111.172 E22.32019
G1 X101.649 Y120.804 E22.79363
G1 X102.329 Y121.321 E22.8097
G1 X104.858 Y124.938 E22.89272
G1 X114.49 Y148.193 E23.36619
G1 X114.606 Y149.031 E23.38211
G0 F9000 X114.201 Y149.022
G1 F1440 X113.445 Y153.281 E23.46347
G1 X103.847 Y176.451 E23.93523
G1 X103.402 Y177.036 E23.94905
G1 X99.872 Y179.503 E24.03006
G1 X76.699 Y189.101 E24.50187
G1 X75.978 Y189.201 E24.51556
G1 X71.721 Y188.445 E24.59689
G1 X48.551 Y178.847 E25.06865
G1 X47.966 Y178.402 E25.08248
G1 X45.497 Y174.867 E25.16358
G1 X35.901 Y151.699 E25.63529
G1 X35.801 Y150.978 E25.64898
G1 X36.559 Y146.715 E25.73043
G1 X46.155 Y123.551 E26.20207
G1 X46.6 Y122.966 E26.21589
G1 X50.13 Y120.498 E26.29691
G1 X73.303 Y110.901 E26.76871
G1 X74.024 Y110.801 E26.78241
G1 X78.282 Y111.558 E26.86376
G1 X101.451 Y121.155 E27.33549
G1 X102.036 Y121.6 E27.34931
G1 X104.504 Y125.13 E27.43033
G1 X114.101 Y148.301 E27.9021
G1 X114.201 Y149.022 E27.91579
G0 F9000 X113.796 Y149.013
G1 F1440 X113.059 Y153.167 E27.99515
G1 X103.496 Y176.253 E28.46519
G1 X103.123 Y176.743 E28.47678
G1 X99.68 Y179.149 E28.55579
G1 X76.591 Y188.712 E29.02589
G1 X75.987 Y188.796 E29.03736
G1 X71.835 Y188.059 E29.11668
G1 X48.749 Y178.496 E29.58672
G1 X48.259 Y178.123 E29.59831
G1 X45.851 Y174.675 E29.67742
G1 X36.29 Y151.591 E30.14741
G1 X36.206 Y150.987 E30.15888
G1 X36.945 Y146.829 E30.23832
G1 X46.506 Y123.749 E30.70825
G1 X46.879 Y123.259 E30.71983
G1 X50.322 Y120.852 E30.79885
G1 X73.411 Y111.29 E31.26894
G1 X74.015 Y111.206 E31.28041
G1 X78.168 Y111.944 E31.35976
G1 X101.253 Y121.506 E31.82977
G1 X101.743 Y121.879 E31.84136
G1 X104.15 Y125.322 E31.92038
G1 X113.712 Y148.409 E32.39043
G1 X113.796 Y149.013 E32.4019
G0 F9000 X113.402 Y148.943
G1 F1440 X112.673 Y153.053 E32.48042
G1 X103.126 Y176.1 E32.94967
G1 X102.844 Y176.45 E32.95813
G1 X99.488 Y178.795 E33.03514
G1 X76.438 Y188.342 E33.50444
G1 X76.057 Y188.402 E33.5117
G1 X71.949 Y187.673 E33.59018
G1 X48.902 Y178.126 E34.05943
G1 X48.552 Y177.844 E34.06789
G1 X46.205 Y174.483 E34.145
G1 X36.66 Y151.438 E34.6142
G1 X36.6 Y151.057 E34.62145
G1 X37.331 Y146.943 E34.70005
G1 X46.876 Y123.902 E35.16918
G1 X47.158 Y123.552 E35.17764
G1 X50.514 Y121.206 E35.25466
G1 X73.564 Y111.66 E35.72396
G1 X73.945 Y111.6 E35.73121
G1 X78.054 Y112.33 E35.80972
G1 X101.1 Y121.876 E36.27894
G1 X101.45 Y122.158 E36.2874
G1 X103.796 Y125.514 E36.36442
G1 X113.342 Y148.562 E36.83368
G1 X113.402 Y148.943 E36.84094
G0 F9000 X112.602 Y148.868
G1 F1440 X111.901 Y152.825 E36.91653
G1 X102.386 Y175.794 E37.38419
G1 X99.104 Y178.087 E37.4595
G1 X76.132 Y187.602 E37.92722
G1 X72.177 Y186.901 E38.00278
G1 X49.208 Y177.386 E38.47044
G1 X46.913 Y174.099 E38.54585
G1 X37.4 Y151.132 E39.01347
G1 X38.103 Y147.171 E39.08914
G1 X47.616 Y124.208 E39.55669
G1 X50.898 Y121.914 E39.63201
G1 X73.87 Y112.4 E40.09972
G1 X77.826 Y113.102 E40.17529
G1 X100.794 Y122.616 E40.64293
G1 X103.088 Y125.898 E40.71826
G1 X112.602 Y148.868 E41.18593
G0 F9000 X112.996 Y148.938
G1 F1440 X112.287 Y152.939 E41.26236
G1 X102.756 Y175.947 E41.73082
G1 X102.615 Y176.122 E41.73505
G1 X99.296 Y178.441 E41.81121
G1 X76.285 Y187.972 E42.27972
G1 X76.062 Y187.996 E42.28394
G1 X72.063 Y187.287 E42.36034
G1 X49.055 Y177.756 E42.82879
G1 X48.88 Y177.615 E42.83302
G1 X46.559 Y174.291 E42.90928
G1 X37.03 Y151.285 E43.37769
G1 X37.006 Y151.062 E43.38191
G1 X37.717 Y147.057 E43.45842
G1 X47.246 Y124.055 E43.92676
G1 X47.387 Y123.88 E43.93099
G1 X50.706 Y121.56 E44.00716
G1 X73.717 Y112.03 E44.47567
G1 X73.94 Y112.006 E44.47988
G1 X77.94 Y112.716 E44.5563
G1 X100.947 Y122.246 E45.02474
G1 X101.122 Y122.387 E45.02896
G1 X103.442 Y125.706 E45.10514
G1 X112.972 Y148.715 E45.5736
G1 X112.996 Y148.938 E45.57782
G1 F2310 E37.42782
;MESH:Pencil_holder.stl
G0 F9000 X111.268 Y149.44
G0 X76.078 Y187.163
;TYPE:WALL-OUTER
G1 F1140 E45.57782
G1 F1440 X98.915 Y177.701 E46.04281
G1 X102.037 Y175.513 E46.11453
G1 X111.502 Y152.672 E46.57961
G1 X112.163 Y148.918 E46.65131
G1 X102.701 Y126.085 E47.11623
G1 X100.513 Y122.963 E47.18794
G1 X77.676 Y113.502 E47.65292
G1 X73.922 Y112.837 E47.72464
G1 X51.085 Y122.299 E48.18962
G1 X47.963 Y124.483 E48.26129
G1 X38.502 Y147.324 E48.72635
G1 X37.838 Y151.078 E48.79806
G1 X47.295 Y173.911 E49.26294
G1 X49.483 Y177.037 E49.33472
G1 X72.324 Y186.498 E49.79977
G1 X76.078 Y187.163 E49.87148
G0 F9000 X76.262 Y187.087
G0 X76.038 Y186.8
;TYPE:WALL-INNER
G1 F1440 X98.745 Y177.392 E50.27603
G1 X101.752 Y175.285 E50.33646
G1 X111.164 Y152.574 E50.7411
G1 X111.8 Y148.958 E50.80153
G1 X102.392 Y126.255 E51.20602
G1 X100.285 Y123.248 E51.26645
G1 X77.577 Y113.84 E51.67101
G1 X73.962 Y113.2 E51.73144
G1 X51.255 Y122.608 E52.13599
G1 X48.248 Y124.711 E52.19638
G1 X38.84 Y147.423 E52.60101
G1 X38.2 Y151.038 E52.66143
G1 X47.604 Y173.741 E53.0659
G1 X49.711 Y176.752 E53.12638
G1 X72.423 Y186.16 E53.53101
G1 X76.038 Y186.8 E53.59143
G0 F9000 X75.999 Y186.438
G1 F1440 X98.576 Y177.084 E53.99366
G1 X101.468 Y175.057 E54.05179
G1 X110.826 Y152.475 E54.45413
G1 X111.438 Y148.998 E54.51223
G1 X102.084 Y126.424 E54.91442
G1 X100.057 Y123.532 E54.97255
G1 X77.479 Y114.178 E55.37479
G1 X74.001 Y113.562 E55.43293
G1 X51.424 Y122.916 E55.83516
G1 X48.532 Y124.94 E55.89326
G1 X39.178 Y147.521 E56.29555
G1 X38.562 Y150.999 E56.35369
G1 X47.912 Y173.572 E56.75584
G1 X49.94 Y176.468 E56.81403
G1 X72.521 Y185.822 E57.21632
G1 X75.999 Y186.438 E57.27446
G0 F9000 X75.965 Y186.173
;TYPE:SKIN
G1 F1440 X98.452 Y176.854 E57.60499
G1 X101.257 Y174.888 E57.6515
G1 X110.58 Y152.393 E57.98215
G1 X111.173 Y149.027 E58.02856
G1 X101.858 Y126.548 E58.35897
G1 X99.888 Y123.739 E58.40556
G1 X77.401 Y114.424 E58.73607
G1 X74.031 Y113.827 E58.78254
G1 X51.548 Y123.142 E59.113
G1 X48.738 Y125.104 E59.15954
G1 X39.42 Y147.603 E59.49021
G1 X38.827 Y150.965 E59.53657
G1 X48.138 Y173.448 E59.86701
G1 X50.104 Y176.257 E59.91357
G1 X72.599 Y185.576 E60.2442
G1 X75.965 Y186.173 E60.29062
G1 F2310 E52.14062
G0 F9000 X75.488 Y186.334
G0 X76.093 Y186.965
G0 X98.704 Y177.605
G0 X101.419 Y175.632
G0 X111.279 Y152.762
G0 X111.965 Y148.909
G0 X102.605 Y126.297
G0 X100.606 Y124.299
G0 X100.193 Y124.461
G1 F1140 E60.29062
G1 F1440 X99.481 Y123.749 E60.30429
G1 X99.34 Y123.608
G0 F9000 X98.685 Y123.419
G1 F1440 X101.288 Y126.023 E60.35428
G1 X101.429 Y126.164
G1 F2310 E52.20428
G0 F9000 X101.608 Y125.727
G0 X101.915 Y127.116
G1 F1140 E60.35428
G1 F1440 X97.888 Y123.09 E60.43161
G1 X97.747 Y122.949
G0 F9000 X97.091 Y122.759
G1 F1440 X102.245 Y127.913 E60.53058
G1 X102.386 Y128.054
G0 F9000 X102.575 Y128.71
G1 F1440 X96.295 Y122.429 E60.65119
G1 X96.154 Y122.288
G0 F9000 X95.498 Y122.099
G1 F1440 X102.906 Y129.507 E60.79345
G1 X103.047 Y129.648
G0 F9000 X103.236 Y130.304
G1 F1440 X94.701 Y121.769 E60.95735
G1 X94.56 Y121.628
G0 F9000 X93.904 Y121.439
G1 F1440 X103.566 Y131.101 E61.14289
G1 X103.707 Y131.242
G0 F9000 X103.897 Y131.898
G1 F1440 X93.108 Y121.109 E61.35008
G1 X92.967 Y120.968
G0 F9000 X92.311 Y120.779
G1 F1440 X104.227 Y132.695 E61.57891
G1 X104.368 Y132.836
G0 F9000 X104.557 Y133.492
G1 F1440 X91.514 Y120.449 E61.82938
G1 X91.373 Y120.308
G0 F9000 X90.717 Y120.118
G1 F1440 X104.887 Y134.289 E62.1015
G1 X105.028 Y134.43
G0 F9000 X105.217 Y135.086
G1 F1440 X89.921 Y119.789 E62.39524
G1 X89.78 Y119.648
G0 F9000 X89.124 Y119.459
G1 F1440 X105.548 Y135.883 E62.71064
G1 X105.689 Y136.024
G0 F9000 X105.878 Y136.679
G1 F1440 X88.327 Y119.128 E63.04768
G1 X88.186 Y118.987
G0 F9000 X87.53 Y118.798
G1 F1440 X106.208 Y137.476 E63.40636
G1 X106.349 Y137.617
G0 F9000 X106.538 Y138.273
G1 F1440 X86.733 Y118.468 E63.78669
G1 X86.592 Y118.327
G0 F9000 X85.937 Y118.138
G1 F1440 X106.869 Y139.07 E64.18865
G1 X107.01 Y139.211
G0 F9000 X107.199 Y139.867
G1 F1440 X85.14 Y117.808 E64.61226
G1 X84.999 Y117.667
G0 F9000 X84.343 Y117.478
G1 F1440 X107.529 Y140.664 E65.05751
G1 X107.67 Y140.805
G0 F9000 X107.859 Y141.461
G1 F1440 X83.546 Y117.148 E65.5244
G1 X83.405 Y117.007
G0 F9000 X82.75 Y116.818
G1 F1440 X108.189 Y142.258 E66.01293
G1 X108.33 Y142.399
G0 F9000 X108.52 Y143.055
G1 F1440 X81.953 Y116.488 E66.52311
G1 X81.812 Y116.347
G0 F9000 X81.156 Y116.158
G1 F1440 X108.85 Y143.852 E67.05493
G1 X108.991 Y143.993
G0 F9000 X109.18 Y144.649
G1 F1440 X80.359 Y115.828 E67.60839
G1 X80.218 Y115.687
G0 F9000 X79.562 Y115.497
G1 F1440 X109.51 Y145.446 E68.1835
G1 X109.651 Y145.587
G0 F9000 X109.841 Y146.242
G1 F1440 X78.766 Y115.168 E68.78024
G1 X78.625 Y115.027
G0 F9000 X77.969 Y114.838
G1 F1440 X110.171 Y147.039 E69.39862
G1 X110.312 Y147.18
G0 F9000 X110.501 Y147.836
G1 F1440 X77.225 Y114.56 E70.03763
G0 F9000 X76.658 Y114.46
G1 F1440 X110.831 Y148.633 E70.69387
G0 F9000 X110.969 Y149.238
G1 F1440 X76.091 Y114.36 E71.36365
G0 F9000 X75.524 Y114.259
G1 F1440 X110.899 Y149.634 E72.04297
G0 F9000 X110.829 Y150.031
G1 F1440 X74.957 Y114.159 E72.73183
G0 F9000 X74.39 Y114.059
G1 F1440 X110.759 Y150.428 E73.43024
G0 F9000 X110.69 Y150.825
G1 F1440 X73.918 Y114.053 E74.13639
G0 F9000 X73.588 Y114.19
G1 F1440 X110.62 Y151.222 E74.84753
G0 F9000 X110.55 Y151.619
G1 F1440 X73.258 Y114.327 E75.56366
G0 F9000 X72.928 Y114.464
G1 F1440 X110.48 Y152.015 E76.28478
G0 F9000 X110.399 Y152.401
G1 F1440 X72.598 Y114.6 E77.01069
G0 F9000 X72.268 Y114.737
G1 F1440 X110.262 Y152.731 E77.74031
G0 F9000 X110.126 Y153.061
G1 F1440 X71.938 Y114.874 E78.47364
G0 F9000 X71.608 Y115.01
G1 F1440 X109.989 Y153.391 E79.21068
G0 F9000 X109.852 Y153.721
G1 F1440 X71.278 Y115.147 E79.95144
G0 F9000 X70.948 Y115.284
G1 F1440 X109.715 Y154.051 E80.69589
G0 F9000 X109.578 Y154.381
G1 F1440 X70.618 Y115.42 E81.44407
G0 F9000 X70.289 Y115.558
G1 F1440 X109.442 Y154.711 E82.19594
G0 F9000 X109.305 Y155.041
G1 F1440 X69.958 Y115.694 E82.95154
G0 F9000 X69.628 Y115.83
G1 F1440 X109.168 Y155.37 E83.71084
G0 F9000 X109.032 Y155.701
G1 F1440 X69.299 Y115.968 E84.47385
G0 F9000 X68.968 Y116.104
G1 F1440 X108.895 Y156.031 E85.24059
G0 F9000 X108.758 Y156.36
G1 F1440 X68.638 Y116.241 E86.01102
G0 F9000 X68.309 Y116.378
G1 F1440 X108.622 Y156.691 E86.78517
G0 F9000 X108.484 Y157.02
G1 F1440 X67.978 Y116.514 E87.56302
G0 F9000 X67.648 Y116.651
G1 F1440 X108.348 Y157.35 E88.34459
G0 F9000 X108.211 Y157.681
G1 F1440 X67.319 Y116.788 E89.12986
G0 F9000 X66.988 Y116.924
G1 F1440 X108.074 Y158.01 E89.91886
G0 F9000 X107.938 Y158.34
G1 F1440 X66.658 Y117.061 E90.71156
G0 F9000 X66.329 Y117.198
G1 F1440 X107.801 Y158.67 E91.50797
G0 F9000 X107.664 Y159
G1 F1440 X65.999 Y117.334 E92.30809
G0 F9000 X65.668 Y117.471
G1 F1440 X107.528 Y159.33 E93.11193
G0 F9000 X107.39 Y159.66
G1 F1440 X65.339 Y117.608 E93.91947
G0 F9000 X65.009 Y117.745
G1 F1440 X107.254 Y159.99 E94.73072
G0 F9000 X107.117 Y160.319
G1 F1440 X64.678 Y117.881 E95.54568
G0 F9000 X64.349 Y118.018
G1 F1440 X106.98 Y160.65 E96.36435
G0 F9000 X106.844 Y160.98
G1 F1440 X64.019 Y118.155 E97.18674
G0 F9000 X63.688 Y118.291
G1 F1440 X106.707 Y161.309 E98.01284
G0 F9000 X106.57 Y161.64
G1 F1440 X63.359 Y118.428 E98.84265
G0 F9000 X63.029 Y118.565
G1 F1440 X106.433 Y161.969 E99.67615
G0 F9000 X106.297 Y162.299
G1 F1440 X62.698 Y118.701 E100.51339
G0 F9000 X62.369 Y118.838
G1 F1440 X106.16 Y162.63 E101.35434
G0 F9000 X106.023 Y162.959
G1 F1440 X62.039 Y118.975 E102.19898
G0 F9000 X61.709 Y119.111
G1 F1440 X105.886 Y163.289 E103.04734
G0 F9000 X105.749 Y163.619
G1 F1440 X61.379 Y119.249 E103.8994
G0 F9000 X61.049 Y119.385
G1 F1440 X105.613 Y163.949 E104.75518
G0 F9000 X105.476 Y164.279
G1 F1440 X60.719 Y119.522 E105.61467
G0 F9000 X60.389 Y119.659
