;FLAVOR:Marlin
;TIME:224
;Filament used: 0.0350436m, 0.0308332m
;Layer height: 0.2
;MINX:75
;MINY:79.978
;MINZ:0.25
;MAXX:207.749
;MAXY:207.054
;MAXZ:20.001
;TARGET_MACHINE.NAME:Syncraft IDEX
;Generated with Cura_SteamEngine 5.8.0


; Pre-Processed for Cancel-Object support by preprocess_cancellation v0.2.0
; 2 known objects
EXCLUDE_OBJECT_DEFINE NAME=IDEX_offset_calibration_ref_STL CENTER=127.048,125.454 POLYGON=[[82.536,79.978],[82.536,207.054],[207.749,207.054],[207.749,79.978]]
EXCLUDE_OBJECT_DEFINE NAME=IDEX_offset_calibration_offset_STL CENTER=136.839,136.247 POLYGON=[[100.33,99.638],[100.33,203.044],[203.734,203.044],[203.734,99.638]]
T0
M82 ;absolute extrusion mode
;Nozzle diameter = 0.6
SET_GCODE_VARIABLE MACRO=DC_VARS VARIABLE=extruder1_in_use VALUE=1
M605 S0
M900 P0.6 S100
BREAK_CLEAN P=50
G21 ; set units to millimeters
G90 ; use absolute positioning
M82 ; absolute extrusion mode
M104 T0 S150 ; set extruder temp
_idexSyncExtrudersTemp
set_bed_temperature
G28 Z ; home z
M109 T0 S150
G28 XY; home XY
START_GCODE
set_calibration_temperature T=0 R=1
_primeRoutine
G92 E0
T0
G92 E0
G1 F2700 E-6.5
;LAYER_COUNT:1
G0 F7200 X75 Y150
;LAYER:0
M107
M104 T1 S100
G1 F600 Z0.75
G0 F2160 X84.989 Y123.613 Z0.75
set_calibration_temperature T=1 R=0
;TYPE:SKIRT
G1 F600 Z0.25
G1 F1200 E0
G1 F1800 X84.949 Y120.818 E0.05915
G1 X84.834 Y118.105 E0.11662
G1 X84.64 Y115.359 E0.17487
G1 X84.373 Y112.664 E0.23218
G1 X84.02 Y109.908 E0.29098
G1 X83.598 Y107.226 E0.34844
G1 X83.096 Y104.489 E0.40732
G1 X83.324 Y101.247 E0.4761
G1 X83.437 Y98.54 E0.53343
G1 X83.474 Y95.785 E0.59174
G1 X83.434 Y93.041 E0.64981
G1 X83.316 Y90.311 E0.70764
G1 X82.998 Y86.165 E0.79563
G1 X83.106 Y85.496 E0.80998
G1 X83.583 Y84.343 E0.83638
G1 X84.895 Y83.025 E0.87574
G1 X85.975 Y82.471 E0.90142
G1 X86.706 Y82.33 E0.91718
G1 X89.647 Y82.105 E0.9796
G1 X92.392 Y81.813 E1.03801
G1 X95.107 Y81.447 E1.09599
G1 X97.801 Y81.005 E1.15376
G1 X100.751 Y80.44 E1.21732
G1 X101.587 Y80.478 E1.23503
G1 X104.266 Y81.208 E1.29379
G1 X106.929 Y81.857 E1.35179
G1 X109.618 Y82.431 E1.40998
G1 X112.316 Y82.929 E1.46804
G1 X114.988 Y83.344 E1.52526
G1 X117.697 Y83.688 E1.58305
G1 X120.457 Y83.958 E1.64174
G1 X123.168 Y84.146 E1.69924
G1 X125.88 Y84.258 E1.75668
G1 X128.548 Y84.294 E1.81315
G1 X203.195 Y84.294 E3.39282
G1 X204.331 Y84.679 E3.4182
G1 X204.763 Y84.951 E3.429
G1 X205.476 Y85.68 E3.45058
G1 X205.929 Y86.593 E3.47215
G1 X206.063 Y87.173 E3.48475
G1 X206.164 Y89.03 E3.5241
G1 X206.362 Y91.758 E3.58199
G1 X206.637 Y94.464 E3.63954
G1 X206.991 Y97.199 E3.69791
G1 X207.108 Y97.938 E3.71374
G1 X207.288 Y99.19 E3.74051
G1 X207.289 Y120.303 E4.1873
G1 X206.905 Y121.436 E4.21261
G1 X206.297 Y122.254 E4.23418
G1 X205.408 Y122.878 E4.25717
G1 X202.263 Y124.139 E4.32887
G1 X199.761 Y125.231 E4.38664
G1 X197.239 Y126.416 E4.44561
G1 X194.837 Y127.63 E4.50256
G1 X192.428 Y128.933 E4.56052
G1 X190.056 Y130.305 E4.61851
G1 X187.715 Y131.749 E4.67672
G1 X185.439 Y133.243 E4.73433
G1 X183.193 Y134.812 E4.79231
G1 X181.01 Y136.428 E4.84978
G1 X178.848 Y138.127 E4.90797
G1 X176.718 Y139.899 E4.96661
G1 X174.699 Y141.679 E5.02357
G1 X172.693 Y143.55 E5.08162
G1 X170.723 Y145.495 E5.1402
G1 X168.861 Y147.44 E5.19718
G1 X167.002 Y149.496 E5.25584
G1 X165.233 Y151.567 E5.31348
G1 X163.531 Y153.679 E5.37088
G1 X161.861 Y155.874 E5.42924
G1 X159.657 Y158.958 E5.50946
G1 X158.533 Y159.766 E5.53875
G1 X157.629 Y160.396 E5.56207
G1 X155.426 Y162.026 E5.62006
G1 X153.251 Y163.733 E5.67857
G1 X151.155 Y165.476 E5.73626
G1 X149.119 Y167.268 E5.79366
G1 X147.109 Y169.14 E5.85178
G1 X145.14 Y171.082 E5.91031
G1 X143.276 Y173.029 E5.96735
G1 X141.437 Y175.059 E6.02531
G1 X139.64 Y177.162 E6.08385
G1 X137.932 Y179.276 E6.14136
G1 X136.262 Y181.469 E6.1997
G1 X134.691 Y183.657 E6.2567
G1 X133.144 Y185.946 E6.31516
G1 X131.676 Y188.256 E6.37308
G1 X130.285 Y190.59 E6.43058
G1 X128.932 Y193.01 E6.48925
G1 X127.686 Y195.396 E6.54622
G1 X126.474 Y197.887 E6.60484
G1 X125.352 Y200.368 E6.66246
G1 X124.294 Y202.895 E6.72043
G1 X123.528 Y204.832 E6.76451
G1 X122.78 Y205.762 E6.78977
G1 X121.723 Y206.437 E6.81631
G1 X120.629 Y206.594 E6.8397
G1 X99.9 Y206.594 E7.27836
G1 X96.381 Y206.084 E7.35361
G1 X93.658 Y205.774 E7.41161
G1 X90.943 Y205.541 E7.46927
G1 X87.741 Y205.359 E7.53714
G1 X86.626 Y204.941 E7.56234
G1 X85.835 Y204.298 E7.58391
G1 X85.524 Y203.892 E7.59473
G1 X85.11 Y202.961 E7.6163
G1 X84.99 Y202.319 E7.63012
G1 X84.989 Y123.613 E9.29568
G1 F2700 E2.79568
G1 F600 Z0.75
;MESH:IDEX offset calibration_ref.STL
EXCLUDE_OBJECT_START NAME=IDEX_offset_calibration_ref_STL
G0 F2160 X90.485 Y104.046 Z0.75
;TYPE:WALL-OUTER
G1 F600 Z0.25
G1 F1200 E9.29568
G1 F1888.1 X88.881 Y101.421 E9.35801
G1 F1605 X88.66 Y101.216 E9.36509
G1 F1452.4 X88.66 Y100.229 E9.39042
G1 F1590.2 X88.66 Y99.242 E9.41378
G1 F1753.5 X88.66 Y98.255 E9.43517
G0 F2160 X88.66 Y101.216
G1 F1605 X88.439 Y101.421 E9.44225
G1 F1884.1 X86.835 Y104.046 E9.5047
G1 F2700 E3.0047
G1 F600 Z0.75
G0 F2160 X94.1 Y101.934 Z0.75
;TYPE:WALL-INNER
G1 F600 Z0.25
G1 F1200 E9.5047
G1 F1180.3 X93.953 Y101.849 E9.50993
G1 X93.953 Y102.019 E9.51516
G1 X94.1 Y101.934 E9.52039
G0 F2160 X94.19 Y101.329
;TYPE:WALL-OUTER
G1 F1257.1 X94.002 Y101.136 E9.52825
G1 X93.814 Y101.329 E9.53611
G1 F1620 X93.036 Y101.37 E9.55424
G1 F1800 X94.002 Y103.6 E9.60567
G1 X94.968 Y101.37 E9.6571
G1 F1620 X94.19 Y101.329 E9.67523
G0 F2160 X94.002 Y101.136
G0 X93.981 Y101.158
G0 X94.002 Y101.136
G1 F1095.9 X94.002 Y98.41 E9.76476
G1 F2700 E3.26476
G1 F600 Z0.75
G0 F2160 X103.921 Y103.567 Z0.75
G1 F600 Z0.25
G1 F1200 E9.76476
G1 F2038.3 X86.613 Y86.259 E10.2271
G1 X86.953 Y85.918 E10.2362
G1 X104.262 Y103.227 E10.69857
G1 X103.921 Y103.567 E10.70767
G0 F2160 X104.133 Y103.356
G1 F2700 E4.20767
G1 F600 Z0.75
G0 F2160 X102.38 Y87.047 Z0.75
G1 F600 Z0.25
G1 F1200 E10.70767
G1 F1908.3 X100.676 Y89.706 E10.77104
G1 F1620 X100.482 Y89.868 E10.77692
G1 F1611 X100.292 Y89.708 E10.78273
G1 F1884.1 X98.587 Y87.049 E10.84685
G1 F2700 E4.34685
G1 F600 Z0.75
G0 F2160 X98.668 Y92.843 Z0.75
G1 F600 Z0.25
G1 F1200 E10.84685
G1 F1892.1 X100.266 Y90.348 E10.90677
G1 F1614 X100.482 Y90.15 E10.91361
G1 F1620 X100.701 Y90.349 E10.9205
G1 F1900.2 X102.297 Y92.843 E10.98014
G1 F2700 E4.48014
G1 F600 Z0.75
G0 F2160 X101.956 Y85.082 Z0.75
;TYPE:WALL-INNER
G1 F600 Z0.25
G1 F1200 E10.98014
G1 F1180.3 X101.809 Y84.997 E10.98537
G1 X101.809 Y85.167 E10.99061
G1 X101.956 Y85.082 E10.99584
G0 F2160 X101.247 Y85.275
;TYPE:WALL-OUTER
G1 F1644.6 X101.294 Y86.049 E11.01364
G1 F1800 X103.526 Y85.082 E11.06512
G1 X101.295 Y84.116 E11.11657
G1 F1644.6 X101.247 Y84.885 E11.13426
G1 F1272.7 X101.024 Y85.08 E11.14281
G1 X101.247 Y85.275 E11.15135
G0 F2160 X101.265 Y85.574
G0 X101.024 Y85.08
G1 F1092.9 X98.34 Y85.08 E11.2397
G1 F2700 E4.7397
G1 F600 Z0.75
G0 F2160 X123.303 Y134.996 Z0.75
G1 F600 Z0.25
G1 F1200 E11.2397
G1 F1005.4 X123.234 Y133.914 E11.27803
G1 F1000.1 X123.306 Y132.749 E11.31947
G1 F1010.6 X123.562 Y131.695 E11.35764
G1 F1035 X124.111 Y130.878 E11.39159
G1 F1122.3 X124.931 Y130.472 E11.42103
G1 F1190.8 X125.777 Y130.492 E11.44689
G1 F1120.7 X126.66 Y131.015 E11.47995
G1 F1016 X127.206 Y131.939 E11.51755
G1 F962.3 X127.436 Y132.91 E11.55416
G1 F994.9 X127.478 Y134.355 E11.60571
G1 F1016 X127.294 Y135.446 E11.64447
G1 F993.7 X126.943 Y136.326 E11.67829
G1 F1029.5 X126.422 Y136.881 E11.70467
G1 F1082.3 X125.706 Y137.214 E11.73088
G1 F1120.7 X125.244 Y137.276 E11.74589
G1 F1097.4 X124.55 Y137.093 E11.76943
G1 F1051.8 X124.131 Y136.83 E11.78626
G1 F1046.1 X123.844 Y136.515 E11.80082
G1 F1017.3 X123.52 Y135.877 E11.82587
G1 F1004.1 X123.303 Y134.996 E11.85797
G1 F2700 E5.35797
G1 F600 Z0.75
G0 F2160 X129.908 Y131.118 Z0.75
G1 F600 Z0.25
G1 F1200 E11.85797
G1 F1423 X129.558 Y131.049 E11.8673
G1 X129.459 Y130.895 E11.87208
G1 X129.496 Y130.616 E11.87944
G1 X129.684 Y130.465 E11.88574
G1 X130.045 Y130.516 E11.89527
G1 X130.198 Y130.837 E11.90457
G1 X129.908 Y131.118 E11.91512
G0 F2160 X130.123 Y130.91
G1 F2700 E5.41512
G1 F600 Z0.75
G0 F2160 X133.178 Y137.092 Z0.75
G1 F600 Z0.25
G1 F1200 E11.91512
G1 F1032.2 X134.053 Y136.979 E11.94562
G1 F955 X134.054 Y133.815 E12.06242
G1 F986 X134.056 Y130.651 E12.17612
G1 F2700 E5.67612
G1 F600 Z0.75
G0 F2160 X138.006 Y135.162 Z0.75
G1 F600 Z0.25
G1 F1200 E12.17612
G1 F1008 X138.006 Y134.912 E12.18494
G0 F2160 X142.113 Y134.327
G1 F1459.9 X142.49 Y134.858 E12.20158
G1 F1255.2 X143.314 Y135.276 E12.22855
G1 F1143.3 X143.973 Y135.257 E12.24943
G1 F1088.3 X144.385 Y135.108 E12.2639
G1 F1057.5 X144.841 Y134.7 E12.28462
G1 F1049 X145.039 Y134.258 E12.30113
G1 F1018.7 X145.152 Y133.67 E12.32206
G1 F994.9 X145.154 Y130.65 E12.42976
G0 F2160 X141.58 Y130.652
G1 F1002.7 X141.58 Y132.576 E12.49792
G0 F2160 X141.841 Y133.164
G1 F1837.4 X141.985 Y134.112 E12.51784
G1 F1638.4 X142.113 Y134.327 E12.5236
G1 X141.904 Y134.21 E12.52912
G1 F1325.9 X141.411 Y134.319 E12.54317
G1 F1338.8 X141.36 Y133.911 E12.55451
G1 F1856.6 X141.366 Y133.183 E12.56949
G1 F1369.6 X141.58 Y132.576 E12.5869
G1 X141.841 Y133.164 E12.60429
G0 F2160 X141.72 Y132.89
G0 X141.411 Y134.319
G1 F1061.8 X141.214 Y134.761 E12.62062
G1 F1044.7 X140.694 Y135.155 E12.64294
G1 F1098.9 X140.077 Y135.297 E12.66368
G1 F1161.5 X139.498 Y135.221 E12.68192
G1 F1238 X138.981 Y134.934 E12.69939
G1 F1383.2 X138.824 Y134.696 E12.70704
G0 F2160 X138.4 Y134.126
G1 F1509.1 X138.824 Y134.696 E12.72466
G1 F1501.1 X138.512 Y134.582 E12.73294
G1 F1528 X138.318 Y134.632 E12.73785
G1 F1223.1 X138.006 Y134.912 E12.75037
G1 X137.868 Y134.352 E12.76759
G1 F1533.5 X137.868 Y134.071 E12.77447
G1 F1212.2 X138.011 Y133.266 E12.79907
G1 X138.4 Y134.126 E12.82748
G0 F2160 X138.277 Y133.853
G0 X138.011 Y133.266
G1 F998.8 X138.006 Y130.65 E12.92047
G1 F2700 E6.42047
G1 F600 Z0.75
G0 F2160 X147.598 Y135.162 Z0.75
G1 F600 Z0.25
G1 F1200 E12.92047
G1 F1008 X147.598 Y134.9 E12.92971
G0 F2160 X151.176 Y132.574
G1 F1001.4 X151.174 Y130.65 E12.99794
G0 F2160 X154.746 Y130.65
G1 F1000.1 X154.745 Y133.533 E13.1003
G1 F1046.1 X154.611 Y134.284 E13.12637
G1 F1058.9 X154.275 Y134.87 E13.14922
G1 F1033.6 X153.782 Y135.177 E13.16927
G1 F1082.3 X153.02 Y135.271 E13.19475
G1 F1194.3 X152.274 Y135.012 E13.21883
G1 F1444.9 X151.702 Y134.348 E13.24143
G0 F2160 X151.494 Y133.899
G1 F1657.1 X151.702 Y134.348 E13.25271
G1 F1650.8 X151.452 Y134.231 E13.25903
G1 F1325.9 X150.947 Y134.451 E13.27436
G1 F1330.2 X150.93 Y133.906 E13.28949
G1 F1860.5 X150.955 Y133.191 E13.30418
G1 F1371.8 X151.176 Y132.574 E13.32187
G1 X151.422 Y133.182 E13.33958
G1 F1860.5 X151.494 Y133.899 E13.35438
G0 F2160 X151.465 Y133.601
G0 X150.947 Y134.451
G1 F1041.9 X150.796 Y134.75 E13.36587
G1 F1035 X150.174 Y135.197 E13.39228
G1 F1128.7 X149.32 Y135.27 E13.41972
G1 F1141.6 X148.775 Y135.061 E13.43823
G1 F1317.5 X148.402 Y134.703 E13.4527
G0 F2160 X148.039 Y134.225
G1 F1587.3 X148.402 Y134.703 E13.46693
G1 F1596.1 X148.096 Y134.579 E13.47472
G1 F1572.8 X147.905 Y134.628 E13.47943
G1 F1232.4 X147.598 Y134.9 E13.4916
G1 X147.455 Y134.357 E13.50825
G1 F1771.1 X147.389 Y133.307 E13.53085
G1 F1360.6 X147.599 Y132.709 E13.54809
G1 X147.87 Y133.28 E13.56528
G1 F1771.1 X148.039 Y134.225 E13.58589
G0 F2160 X147.987 Y133.93
G0 X147.599 Y132.709
G1 F1002.7 X147.598 Y130.65 E13.65884
G1 F2700 E7.15884
G1 F600 Z0.75
G0 F2160 X145.638 Y123.618 Z0.75
G1 F600 Z0.25
G1 F1200 E13.65884
G1 F1249.4 X147.642 Y123.618 E13.71758
G1 F2700 E7.21758
G1 F600 Z0.75
G0 F2160 X167.426 Y122.53 Z0.75
G1 F600 Z0.25
G1 F1200 E13.71758
G1 F1098.9 X167.426 Y124.069 E13.768
G1 F1159.8 X167.765 Y124.492 E13.78495
G1 F1241.8 X169.48 Y124.492 E13.83549
G0 F2160 X167.426 Y126.454
G1 F1098.9 X167.426 Y124.937 E13.88519
G0 F2160 X167.765 Y124.492
G1 F1159.8 X167.426 Y124.937 E13.90269
G1 F1173.4 X167.008 Y124.492 E13.92159
G1 X167.426 Y124.069 E13.94
G1 F1159.8 X167.765 Y124.492 E13.95695
G0 F2160 X167.578 Y124.258
G0 X167.008 Y124.492
G1 F1257.1 X165.372 Y124.492 E14.00465
G1 F2700 E7.50465
G1 F600 Z0.75
G0 F2160 X122.136 Y156.244 Z0.75
G1 F600 Z0.25
G1 F1200 E14.00465
G1 F1223.1 X139.379 Y156.243 E14.51956
G1 F1215.8 X156.622 Y156.242 E15.03717
G1 F1109.7 X156.871 Y156.179 E15.04551
G1 F1112.9 X156.934 Y155.93 E15.05383
G1 F1223.1 X156.936 Y121.444 E16.08365
G1 F2700 E9.58365
G1 F600 Z0.75
G0 F2160 X127.061 Y167.046 Z0.75
G1 F600 Z0.25
G1 F1200 E16.08365
G1 F1223.1 X127.102 Y166.937 E16.08712
G1 F1156.5 X127.527 Y167.278 E16.10421
G1 F1170 X127.102 Y167.696 E16.12271
G1 X126.655 Y167.278 E16.1417
G1 F1159.8 X127.061 Y167.046 E16.15633
G0 F2160 X126.801 Y167.194
G0 X125.138 Y167.278
G1 F1098.9 X126.655 Y167.278 E16.20603
G0 F2160 X127.102 Y169.33
G1 F1249.4 X127.102 Y167.696 E16.25392
G0 F2160 X129.066 Y167.278
G1 F1098.9 X127.527 Y167.278 E16.30434
G1 F1156.5 X127.102 Y166.937 E16.32143
G1 F1234.3 X127.102 Y165.226 E16.37212
G1 F2700 E9.87212
G1 F600 Z0.75
G0 F2160 X126.23 Y145.578 Z0.75
G1 F600 Z0.25
G1 F1200 E16.37212
G1 F1249.4 X126.23 Y147.582 E16.43086
G1 F2700 E9.93086
G1 F600 Z0.75
G0 F2160 X98.536 Y152.444 Z0.75
G1 F600 Z0.25
G1 F1200 E16.43086
G1 F1695.8 X97.117 Y152.444 E16.46256
G1 F1632.2 X95.698 Y152.444 E16.49537
G1 F1572.8 X94.279 Y152.444 E16.52929
G1 F1517.1 X92.86 Y152.444 E16.56432
G1 F1464.9 X91.441 Y152.444 E16.60047
G1 F1415.8 X90.022 Y152.444 E16.63773
G1 F1369.6 X88.603 Y152.444 E16.6761
G0 F2160 X88.606 Y148.644
G1 F1369.6 X90.025 Y148.644 E16.71447
G1 F1415.8 X91.444 Y148.644 E16.75172
G1 F1464.9 X92.863 Y148.644 E16.78787
G1 F1517.1 X94.282 Y148.644 E16.8229
G1 F1572.8 X95.701 Y148.644 E16.85682
G1 F1632.2 X97.12 Y148.644 E16.88963
G1 F1695.8 X98.539 Y148.644 E16.92133
G0 F2160 X98.536 Y144.844
G1 F1695.8 X97.117 Y144.844 E16.95303
G1 F1632.2 X95.698 Y144.844 E16.98584
G1 F1572.8 X94.279 Y144.844 E17.01976
G1 F1517.1 X92.86 Y144.844 E17.05479
G1 F1464.9 X91.441 Y144.844 E17.09094
G1 F1415.8 X90.022 Y144.844 E17.1282
G1 F1369.6 X88.603 Y144.844 E17.16657
G0 F2160 X88.606 Y141.044
G1 F1369.6 X90.025 Y141.044 E17.20494
G1 F1415.8 X91.444 Y141.044 E17.24219
G1 F1464.9 X92.863 Y141.044 E17.27834
G1 F1517.1 X94.282 Y141.044 E17.31337
G1 F1572.8 X95.701 Y141.044 E17.34729
G1 F1632.2 X97.12 Y141.044 E17.3801
G1 F1695.8 X98.539 Y141.044 E17.4118
G1 F2700 E10.9118
G1 F600 Z0.75
G0 F2160 X103.536 Y137.244 Z0.75
G1 F600 Z0.25
G1 F1200 E17.4118
G1 F1709 X102.179 Y137.244 E17.4419
G1 F1666.6 X100.822 Y137.244 E17.47269
G1 F1626.1 X99.465 Y137.244 E17.50417
G1 F1587.3 X98.108 Y137.244 E17.53634
G1 F1552.9 X96.751 Y137.244 E17.56916
G1 F1517.1 X95.394 Y137.244 E17.60266
G1 F1482.8 X94.037 Y137.244 E17.63685
G1 F1452.4 X92.68 Y137.244 E17.67169
G1 F1420.6 X91.323 Y137.244 E17.70721
G1 F1390 X89.966 Y137.244 E17.74342
G1 F1360.6 X88.609 Y137.244 E17.78033
G0 F2160 X88.606 Y133.444
G1 F1369.6 X90.025 Y133.444 E17.8187
G1 F1415.8 X91.444 Y133.444 E17.85596
G1 F1464.9 X92.863 Y133.444 E17.8921
G1 F1517.1 X94.282 Y133.444 E17.92714
G1 F1572.8 X95.701 Y133.444 E17.96106
G1 F1632.2 X97.12 Y133.444 E17.99387
G1 F1695.8 X98.539 Y133.444 E18.02556
G0 F2160 X98.536 Y129.644
G1 F1695.8 X97.117 Y129.644 E18.05726
G1 F1632.2 X95.698 Y129.644 E18.09007
G1 F1572.8 X94.279 Y129.644 E18.12399
G1 F1517.1 X92.86 Y129.644 E18.15903
G1 F1464.9 X91.441 Y129.644 E18.19517
G1 F1415.8 X90.022 Y129.644 E18.23243
G1 F1369.6 X88.603 Y129.644 E18.2708
G0 F2160 X88.606 Y125.844
G1 F1369.6 X90.025 Y125.844 E18.30917
G1 F1415.8 X91.444 Y125.844 E18.34643
G1 F1464.9 X92.863 Y125.844 E18.38257
G1 F1517.1 X94.282 Y125.844 E18.41761
G1 F1572.8 X95.701 Y125.844 E18.45153
G1 F1632.2 X97.12 Y125.844 E18.48434
G1 F1695.8 X98.539 Y125.844 E18.51603
G0 F2160 X98.536 Y122.044
G1 F1695.8 X97.117 Y122.044 E18.54773
G1 F1632.2 X95.698 Y122.044 E18.58054
G1 F1572.8 X94.279 Y122.044 E18.61446
G1 F1517.1 X92.86 Y122.044 E18.64949
G1 F1464.9 X91.441 Y122.044 E18.68564
G1 F1415.8 X90.022 Y122.044 E18.7229
G1 F1369.6 X88.603 Y122.044 E18.76127
G0 F2160 X88.606 Y118.244
G1 F1360.6 X89.963 Y118.244 E18.79817
G1 F1390 X91.32 Y118.244 E18.83439
G1 F1420.6 X92.677 Y118.244 E18.86991
G1 F1452.4 X94.034 Y118.244 E18.90474
G1 F1482.8 X95.391 Y118.244 E18.93894
