;FLAVOR:Marlin
;TIME:332
;Filament used: 0.0537636m, 0.042916m
;Layer height: 0.2
;MINX:75
;MINY:73.623
;MINZ:0.25
;MAXX:214.023
;MAXY:213.418
;MAXZ:20.001
;TARGET_MACHINE.NAME:Syncraft IDEX
;Generated with Cura_SteamEngine 5.8.0


; Pre-Processed for Cancel-Object support by preprocess_cancellation v0.2.0
; 2 known objects
EXCLUDE_OBJECT_DEFINE NAME=IDEX_offset_calibration_ref_STL CENTER=126.745,125.123 POLYGON=[[76.293,73.623],[76.293,213.418],[214.023,213.418],[214.023,73.623]]
EXCLUDE_OBJECT_DEFINE NAME=IDEX_offset_calibration_offset_STL CENTER=132.631,131.890 POLYGON=[[95.9,95.296],[95.9,208.882],[209.487,208.882],[209.487,95.296]]
T0
M82 ;absolute extrusion mode
;Nozzle diameter = 0.4
SET_GCODE_VARIABLE MACRO=DC_VARS VARIABLE=extruder1_in_use VALUE=1
M605 S0
M900 P0.4 S30
BREAK_CLEAN P=50
G21 ; set units to millimeters
G90 ; use absolute positioning
M82 ; absolute extrusion mode
M104 T0 S150 ; set extruder temp
_SYNC_EXTRUDERS_TEMP
set_bed_temperature
G28 Z ; home z
M109 T0 S150
G28 XY; home XY
START_GCODE
set_calibration_temperature T=0 R=1
PRIME_ROUTINE
G92 E0
T0
G92 E0
G1 F2700 E-5
;LAYER_COUNT:1
G0 F4500 X75 Y150
;LAYER:0
M107
M104 T1 S100
G1 F1200 Z1.25
G0 F4500 X78.824 Y120.767 Z1.25
;TYPE:SKIRT
G1 F1200 Z0.25
G1 F2700 E0
G1 F1200 X78.784 Y117.982 E0.04366
G1 X78.669 Y115.287 E0.08594
G1 X78.476 Y112.562 E0.12877
G1 X78.212 Y109.903 E0.17065
G1 X77.864 Y107.179 E0.2137
G1 X77.446 Y104.515 E0.25597
G1 X76.83 Y101.239 E0.30822
G1 X76.757 Y100.555 E0.31901
G1 X76.863 Y99.287 E0.33895
G1 X77.051 Y96.59 E0.38133
G1 X77.163 Y93.874 E0.42394
G1 X77.199 Y91.134 E0.4669
G1 X77.158 Y88.437 E0.50918
G1 X77.038 Y85.713 E0.55192
G1 X76.786 Y82.346 E0.60485
G1 X76.637 Y80.702 E0.63072
G1 X76.776 Y79.844 E0.64435
G1 X76.951 Y79.302 E0.65328
G1 X77.232 Y78.728 E0.66329
G1 X77.755 Y78.044 E0.67679
G1 X78.64 Y77.161 E0.69639
G1 X79.16 Y76.744 E0.70684
G1 X79.706 Y76.434 E0.71668
G1 X80.289 Y76.212 E0.72646
G1 X81.054 Y76.073 E0.73865
G1 X81.952 Y76.012 E0.75275
G1 X84.669 Y75.8 E0.79547
G1 X87.381 Y75.515 E0.83822
G1 X90.047 Y75.155 E0.88039
G1 X92.745 Y74.714 E0.92324
G1 X94.886 Y74.307 E0.95741
G1 X96.47 Y73.991 E0.98272
G1 X97.51 Y74.041 E0.99905
G1 X98.869 Y74.431 E1.02121
G1 X101.503 Y75.153 E1.06402
G1 X104.15 Y75.798 E1.10673
G1 X106.824 Y76.371 E1.1496
G1 X109.476 Y76.861 E1.19187
G1 X112.137 Y77.274 E1.23408
G1 X114.867 Y77.62 E1.27722
G1 X117.569 Y77.884 E1.31978
G1 X120.252 Y78.071 E1.36194
G1 X122.967 Y78.183 E1.40453
G1 X125.621 Y78.219 E1.44614
G1 X208.289 Y78.219 E2.742
G1 X209.016 Y78.293 E2.75345
G1 X209.686 Y78.473 E2.76433
G1 X210.262 Y78.735 E2.77425
G1 X210.787 Y79.084 E2.78413
G1 X211.252 Y79.512 E2.79403
G1 X211.644 Y80.008 E2.80394
G1 X211.925 Y80.501 E2.81284
G1 X212.161 Y81.1 E2.82293
G1 X212.328 Y82.086 E2.83861
G1 X212.414 Y84.094 E2.87011
G1 X212.605 Y86.786 E2.91242
G1 X212.875 Y89.482 E2.95489
G1 X213.225 Y92.207 E2.99796
G1 X213.642 Y94.912 E3.04086
G1 X213.643 Y117.642 E3.39716
G1 X213.56 Y118.415 E3.40935
G1 X213.393 Y119.023 E3.41923
G1 X213.132 Y119.599 E3.42915
G1 X212.784 Y120.125 E3.43903
G1 X212.355 Y120.593 E3.44898
G1 X211.862 Y120.983 E3.45884
G1 X211.226 Y121.34 E3.47027
G1 X207.888 Y122.569 E3.52603
G1 X205.379 Y123.58 E3.56843
G1 X202.837 Y124.689 E3.61191
G1 X200.416 Y125.826 E3.65383
G1 X197.997 Y127.049 E3.69632
G1 X195.597 Y128.348 E3.7391
G1 X193.266 Y129.694 E3.78129
G1 X190.936 Y131.132 E3.82421
G1 X188.673 Y132.618 E3.86665
G1 X186.425 Y134.187 E3.90962
G1 X184.271 Y135.784 E3.95166
G1 X182.132 Y137.464 E3.99429
G1 X180.052 Y139.195 E4.03671
G1 X177.993 Y141.01 E4.07974
G1 X176.015 Y142.854 E4.12213
G1 X174.06 Y144.785 E4.1652
G1 X172.213 Y146.716 E4.20709
G1 X170.383 Y148.739 E4.24985
G1 X168.591 Y150.835 E4.29308
G1 X166.918 Y152.91 E4.33486
G1 X165.278 Y155.068 E4.37735
G1 X163.688 Y157.284 E4.4201
G1 X162.189 Y159.502 E4.46206
G1 X161.423 Y160.581 E4.48281
G1 X160.674 Y161.225 E4.49829
G1 X158.946 Y162.357 E4.53067
G1 X156.748 Y163.889 E4.57267
G1 X154.54 Y165.522 E4.61572
G1 X152.416 Y167.189 E4.65804
G1 X150.32 Y168.929 E4.70074
G1 X148.312 Y170.698 E4.74269
G1 X146.3 Y172.572 E4.78579
G1 X144.361 Y174.483 E4.82847
G1 X142.476 Y176.45 E4.87118
G1 X140.663 Y178.451 E4.9135
G1 X138.882 Y180.535 E4.95647
G1 X137.199 Y182.618 E4.99845
G1 X135.554 Y184.779 E5.04102
G1 X133.951 Y187.01 E5.08409
G1 X132.46 Y189.216 E5.12583
G1 X130.979 Y191.547 E5.16912
G1 X129.602 Y193.856 E5.21126
G1 X128.276 Y196.226 E5.25383
G1 X127.014 Y198.641 E5.29654
G1 X125.831 Y201.072 E5.33892
G1 X124.712 Y203.546 E5.38149
G1 X123.646 Y206.09 E5.42472
G1 X122.677 Y208.6 E5.4669
G1 X122.36 Y209.503 E5.4819
G1 X121.858 Y210.849 E5.50442
G1 X121.364 Y211.563 E5.51803
G1 X120.972 Y211.976 E5.52696
G1 X120.474 Y212.364 E5.53685
G1 X119.918 Y212.67 E5.5468
G1 X119.31 Y212.894 E5.55696
G1 X118.409 Y213.03 E5.57124
G1 X96.394 Y213.038 E5.91634
G1 X95.357 Y213.014 E5.9326
G1 X94.125 Y212.821 E5.95214
G1 X91.347 Y212.424 E5.99613
G1 X88.7 Y212.124 E6.03789
G1 X85.987 Y211.889 E6.08058
G1 X82.208 Y211.682 E6.1399
G1 X81.361 Y211.429 E6.15376
G1 X80.795 Y211.151 E6.16365
G1 X80.328 Y210.827 E6.17255
G1 X79.828 Y210.351 E6.18338
G1 X79.519 Y209.951 E6.1913
G1 X79.157 Y209.284 E6.2032
G1 X78.961 Y208.73 E6.21241
G1 X78.833 Y207.853 E6.2263
G1 X78.824 Y120.767 E7.59141
G0 F4500 X79.224 Y120.767
G1 F1200 X79.184 Y117.976 E7.63517
G1 X79.069 Y115.27 E7.67762
G1 X78.875 Y112.534 E7.72062
G1 X78.609 Y109.852 E7.76287
G1 X78.261 Y107.128 E7.80592
G1 X77.841 Y104.453 E7.84836
G1 X77.228 Y101.197 E7.9003
G1 X77.159 Y100.551 E7.91048
G1 X77.262 Y99.32 E7.92984
G1 X77.451 Y96.606 E7.97249
G1 X77.563 Y93.89 E8.0151
G1 X77.599 Y91.139 E8.05823
G1 X77.558 Y88.419 E8.10087
G1 X77.438 Y85.695 E8.14361
G1 X77.185 Y82.316 E8.19673
G1 X77.039 Y80.728 E8.22173
G1 X77.157 Y79.967 E8.2338
G1 X77.332 Y79.425 E8.24272
G1 X77.574 Y78.938 E8.25125
G1 X78.044 Y78.321 E8.26341
G1 X79.165 Y77.203 E8.28823
G1 X79.852 Y76.806 E8.30066
G1 X80.361 Y76.606 E8.30924
G1 X81.126 Y76.467 E8.32142
G1 X81.983 Y76.411 E8.33489
G1 X84.706 Y76.199 E8.3777
G1 X87.423 Y75.913 E8.42053
G1 X90.112 Y75.55 E8.46306
G1 X92.81 Y75.109 E8.50591
G1 X94.961 Y74.7 E8.54023
G1 X96.492 Y74.393 E8.56471
G1 X97.453 Y74.439 E8.57979
G1 X98.763 Y74.817 E8.60117
G1 X101.408 Y75.542 E8.64416
G1 X104.055 Y76.187 E8.68686
G1 X106.739 Y76.762 E8.72989
G1 X109.408 Y77.255 E8.77244
G1 X112.087 Y77.671 E8.81493
G1 X114.817 Y78.017 E8.85807
G1 X117.538 Y78.283 E8.90093
G1 X120.236 Y78.471 E8.94332
G1 X122.951 Y78.583 E8.98592
G1 X125.616 Y78.619 E9.0277
G1 X208.268 Y78.619 E10.3233
G1 X208.975 Y78.691 E10.33444
G1 X209.523 Y78.838 E10.34334
G1 X210.043 Y79.07 E10.35226
G1 X210.518 Y79.38 E10.36116
G1 X210.94 Y79.763 E10.37009
G1 X211.296 Y80.206 E10.379
G1 X211.577 Y80.699 E10.38789
G1 X211.774 Y81.208 E10.39645
G1 X211.927 Y82.101 E10.41065
G1 X212.014 Y84.111 E10.44219
G1 X212.207 Y86.826 E10.48485
G1 X212.478 Y89.533 E10.5275
G1 X212.828 Y92.258 E10.57057
G1 X213.242 Y94.934 E10.61301
G1 X213.243 Y117.614 E10.96853
G1 X213.173 Y118.312 E10.97953
G1 X213.027 Y118.861 E10.98843
G1 X212.796 Y119.381 E10.99735
G1 X212.487 Y119.857 E11.00625
G1 X212.105 Y120.281 E11.01519
G1 X211.663 Y120.636 E11.02408
G1 X211.088 Y120.965 E11.03447
G1 X207.739 Y122.198 E11.09041
G1 X205.219 Y123.213 E11.13299
G1 X202.677 Y124.322 E11.17647
G1 X200.246 Y125.464 E11.21857
G1 X197.807 Y126.697 E11.26141
G1 X195.407 Y127.996 E11.30419
G1 X193.066 Y129.348 E11.34656
G1 X190.716 Y130.798 E11.38985
G1 X188.453 Y132.284 E11.43229
G1 X186.196 Y133.859 E11.47543
G1 X184.024 Y135.469 E11.51781
G1 X181.885 Y137.149 E11.56045
G1 X179.787 Y138.895 E11.60323
G1 X177.728 Y140.71 E11.64626
G1 X175.742 Y142.561 E11.68881
G1 X173.779 Y144.5 E11.73207
G1 X171.924 Y146.439 E11.77413
G1 X170.086 Y148.471 E11.81708
G1 X168.287 Y150.575 E11.86047
G1 X166.607 Y152.659 E11.90243
G1 X164.953 Y154.835 E11.94528
G1 X163.363 Y157.051 E11.98803
G1 X161.858 Y159.278 E12.03017
G1 X161.129 Y160.306 E12.04992
G1 X160.452 Y160.892 E12.06396
G1 X158.727 Y162.022 E12.09628
G1 X156.51 Y163.567 E12.13864
G1 X154.302 Y165.2 E12.18169
G1 X152.16 Y166.881 E12.22437
G1 X150.064 Y168.622 E12.26708
G1 X148.039 Y170.405 E12.30938
G1 X146.027 Y172.279 E12.35248
G1 X144.08 Y174.198 E12.39533
G1 X142.187 Y176.173 E12.43821
G1 X140.367 Y178.182 E12.48071
G1 X138.578 Y180.275 E12.52387
G1 X136.888 Y182.367 E12.56602
G1 X135.229 Y184.546 E12.60895
G1 X133.626 Y186.777 E12.65202
G1 X132.122 Y189.001 E12.6941
G1 X130.641 Y191.332 E12.73739
G1 X129.258 Y193.651 E12.77972
G1 X127.921 Y196.041 E12.82265
G1 X126.659 Y198.456 E12.86536
G1 X125.471 Y200.897 E12.90792
G1 X124.343 Y203.391 E12.95082
G1 X123.277 Y205.935 E12.99406
G1 X122.304 Y208.456 E13.03642
G1 X121.985 Y209.364 E13.05151
G1 X121.506 Y210.653 E13.07306
G1 X121.071 Y211.29 E13.08515
G1 X120.726 Y211.66 E13.09308
G1 X120.228 Y212.048 E13.10298
G1 X119.728 Y212.318 E13.11189
G1 X119.213 Y212.504 E13.12047
G1 X118.349 Y212.634 E13.13417
G1 X96.402 Y212.638 E13.47819
G1 X95.419 Y212.619 E13.49361
G1 X94.182 Y212.425 E13.51323
G1 X91.404 Y212.028 E13.55722
G1 X88.734 Y211.725 E13.59935
G1 X86.021 Y211.491 E13.64203
G1 X82.262 Y211.285 E13.70104
G1 X81.535 Y211.069 E13.71293
G1 X81.023 Y210.822 E13.72184
G1 X80.556 Y210.498 E13.73075
G1 X79.836 Y209.706 E13.74753
G1 X79.534 Y209.151 E13.75744
G1 X79.352 Y208.636 E13.766
G1 X79.229 Y207.795 E13.77932
G1 X79.224 Y120.767 E15.14352
G0 F4500 X79.624 Y120.767
G1 F1200 X79.584 Y117.97 E15.18737
G1 X79.469 Y115.253 E15.23
G1 X79.274 Y112.506 E15.27317
G1 X79.006 Y109.801 E15.31578
G1 X78.658 Y107.077 E15.35883
G1 X78.236 Y104.391 E15.40145
G1 X77.546 Y100.728 E15.45988
G1 X77.661 Y99.353 E15.48151
G1 X77.851 Y96.622 E15.52442
G1 X77.963 Y93.906 E15.56703
G1 X77.999 Y91.144 E15.61033
G1 X77.958 Y88.401 E15.65333
G1 X77.838 Y85.677 E15.69607
G1 X77.584 Y82.286 E15.74938
G1 X77.442 Y80.753 E15.77351
G1 X77.539 Y80.086 E15.78408
G1 X77.915 Y79.15 E15.79989
G1 X78.333 Y78.598 E15.81074
G1 X79.397 Y77.533 E15.83434
G1 X79.999 Y77.178 E15.8453
G1 X80.469 Y76.993 E15.85321
G1 X81.197 Y76.861 E15.86481
G1 X82.014 Y76.81 E15.87764
G1 X84.743 Y76.598 E15.92055
G1 X87.465 Y76.31 E15.96346
G1 X90.177 Y75.945 E16.00635
G1 X92.875 Y75.504 E16.04921
G1 X95.036 Y75.093 E16.08369
G1 X96.507 Y74.797 E16.10721
G1 X97.362 Y74.829 E16.12062
G1 X98.657 Y75.203 E16.14175
G1 X101.313 Y75.931 E16.18492
G1 X103.96 Y76.576 E16.22763
G1 X106.654 Y77.153 E16.27081
G1 X109.34 Y77.649 E16.31363
G1 X112.037 Y78.068 E16.35641
G1 X114.767 Y78.414 E16.39955
G1 X117.507 Y78.682 E16.44271
G1 X120.22 Y78.871 E16.48534
G1 X122.935 Y78.983 E16.52793
G1 X125.611 Y79.019 E16.56988
G1 X208.255 Y79.019 E17.86537
G1 X208.874 Y79.078 E17.87511
G1 X209.827 Y79.407 E17.89092
G1 X210.252 Y79.679 E17.89883
G1 X210.95 Y80.407 E17.91464
G1 X211.387 Y81.316 E17.93045
G1 X211.527 Y82.116 E17.94318
G1 X211.614 Y84.128 E17.97475
G1 X211.809 Y86.866 E18.01777
G1 X212.081 Y89.584 E18.06059
G1 X212.431 Y92.309 E18.10366
G1 X212.842 Y94.957 E18.14567
G1 X212.843 Y117.602 E18.50064
G1 X212.786 Y118.212 E18.51024
G1 X212.459 Y119.166 E18.52605
G1 X211.852 Y119.971 E18.54185
G1 X211.461 Y120.291 E18.54977
G1 X210.95 Y120.59 E18.55905
G1 X207.59 Y121.827 E18.61518
G1 X205.059 Y122.846 E18.65795
G1 X202.517 Y123.955 E18.70142
G1 X200.076 Y125.102 E18.7437
G1 X197.617 Y126.345 E18.78689
G1 X195.217 Y127.644 E18.82967
G1 X192.866 Y129.002 E18.87223
G1 X190.496 Y130.464 E18.91588
G1 X188.233 Y131.95 E18.95832
G1 X185.967 Y133.531 E19.00163
G1 X183.777 Y135.154 E19.04436
G1 X181.638 Y136.834 E19.08699
G1 X179.522 Y138.595 E19.13015
G1 X177.463 Y140.41 E19.17317
G1 X175.469 Y142.268 E19.21589
G1 X173.498 Y144.215 E19.25932
G1 X171.635 Y146.162 E19.30156
G1 X169.789 Y148.203 E19.3447
G1 X167.983 Y150.315 E19.38826
G1 X166.296 Y152.408 E19.4304
G1 X164.628 Y154.602 E19.4736
G1 X163.038 Y156.818 E19.51636
G1 X161.527 Y159.054 E19.55866
G1 X160.84 Y160.027 E19.57733
G1 X160.208 Y160.573 E19.59042
G1 X158.508 Y161.687 E19.62228
G1 X156.272 Y163.245 E19.665
G1 X154.064 Y164.878 E19.70805
G1 X151.904 Y166.573 E19.75109
G1 X149.808 Y168.315 E19.79381
G1 X147.766 Y170.112 E19.83645
G1 X145.754 Y171.986 E19.87955
G1 X143.799 Y173.913 E19.92258
G1 X141.898 Y175.896 E19.96564
G1 X140.071 Y177.913 E20.0083
G1 X138.274 Y180.015 E20.05165
G1 X136.577 Y182.116 E20.09399
G1 X134.904 Y184.313 E20.13728
G1 X133.301 Y186.544 E20.18034
G1 X131.784 Y188.786 E20.22277
G1 X130.303 Y191.117 E20.26606
G1 X128.914 Y193.446 E20.30857
G1 X127.566 Y195.856 E20.35186
G1 X126.304 Y198.271 E20.39457
G1 X125.111 Y200.722 E20.4373
G1 X123.974 Y203.236 E20.48055
G1 X122.908 Y205.78 E20.52379
G1 X121.931 Y208.312 E20.56633
G1 X121.61 Y209.225 E20.5815
G1 X121.154 Y210.457 E20.6021
G1 X120.778 Y211.017 E20.61267
G1 X120.035 Y211.698 E20.62847
G1 X119.117 Y212.114 E20.64427
G1 X118.29 Y212.238 E20.65738
G1 X96.408 Y212.238 E21.00039
G1 X95.481 Y212.224 E21.01492
G1 X94.239 Y212.029 E21.03463
G1 X91.461 Y211.632 E21.07861
G1 X88.768 Y211.326 E21.1211
G1 X86.055 Y211.093 E21.16378
G1 X82.339 Y210.89 E21.22212
G1 X81.705 Y210.707 E21.23247
G1 X81.248 Y210.492 E21.24038
G1 X80.462 Y209.861 E21.25618
G1 X79.911 Y209.017 E21.27198
G1 X79.742 Y208.54 E21.27991
G1 X79.625 Y207.737 E21.29263
G1 X79.624 Y120.767 E22.65593
G1 F2700 E17.65593
G1 F1200 Z1.25
;MESH:IDEX offset calibration_ref.STL
EXCLUDE_OBJECT_START NAME=IDEX_offset_calibration_ref_STL
G0 F4500 X85.264 Y100.275 Z1.25
;TYPE:WALL-OUTER
G1 F1200 Z0.25
G1 F2700 E22.65593
G1 F806.3 X83.511 Y97.404 E22.73107
G1 F678.8 X83.266 Y97.176 E22.73974
G1 F608.3 X83.266 Y96.097 E22.7704
G1 F668.1 X83.266 Y95.018 E22.79873
G1 F738.5 X83.266 Y93.939 E22.82473
G1 F2700 E17.82473
G1 F1200 Z1.25
G0 F4500 X83.266 Y97.176 Z1.25
G1 F1200 Z0.25
G1 F2700 E22.82473
G1 F676.4 X83.023 Y97.402 E22.83335
G1 F803.1 X81.268 Y100.275 E22.90882
G1 F2700 E17.90882
G1 F1200 Z1.25
G0 F4500 X89.308 Y97.586 Z1.25
;TYPE:WALL-INNER
G1 F1200 Z0.25
G1 F2700 E22.90882
G1 F1200 X89.715 Y97.648 E22.91527
G1 X89.117 Y99.029 E22.93886
G1 X88.519 Y97.648 E22.96245
G1 X88.929 Y97.586 E22.96895
G1 X89.12 Y97.397 E22.97317
G1 X89.308 Y97.586 E22.97734
G0 F4500 X89.325 Y97.071
;TYPE:WALL-OUTER
G1 F1025.3 X89.325 Y93.899 E23.03465
G1 F1027.8 X88.915 Y93.899 E23.04204
G1 F1025.3 X88.915 Y97.071 E23.09935
G1 F1105.1 X88.741 Y97.273 E23.10385
G1 F1200 X87.947 Y97.273 E23.1163
G1 X89.117 Y99.974 E23.16244
G1 X90.285 Y97.273 E23.20857
G1 X89.498 Y97.273 E23.2209
G1 F1105.1 X89.325 Y97.071 E23.22539
G1 F2700 E18.22539
G1 F1200 Z1.25
G0 F4500 X99.984 Y99.719 Z1.25
G1 F1200 Z0.25
G1 F2700 E23.22539
G1 F880 X81.057 Y80.789 E23.77929
G1 X81.395 Y80.452 E23.78916
G1 X100.323 Y99.38 E24.34304
G1 F878.1 X99.984 Y99.719 E24.35298
G1 F2700 E19.35298
G1 F1200 Z1.25
G0 F4500 X98.291 Y81.656 Z1.25
G1 F1200 Z0.25
G1 F2700 E24.35298
G1 F809.6 X96.428 Y84.565 E24.42987
G1 F686.1 X96.216 Y84.743 E24.43698
G1 F682.4 X96.005 Y84.566 E24.44408
G1 F804.7 X94.141 Y81.656 E24.52141
G1 F2700 E19.52141
G1 F1200 Z1.25
G0 F4500 X94.23 Y88.007 Z1.25
set_calibration_temperature T=1 R=0
G1 F1200 Z0.25
G1 F2700 E24.52141
G1 F814.5 X95.977 Y85.275 E24.59321
G1 F686.1 X96.216 Y85.057 E24.60151
G1 X96.455 Y85.275 E24.60982
G1 F811.2 X98.203 Y88.005 E24.68185
G1 F2700 E19.68185
G1 F1200 Z1.25
G0 F4500 X97.344 Y79.69 Z1.25
;TYPE:WALL-INNER
G1 F1200 Z0.25
G1 F2700 E24.68185
G1 F1200 X97.148 Y79.5 E24.68613
G1 X97.344 Y79.31 E24.6904
G1 X97.408 Y78.902 E24.69688
G1 X98.791 Y79.5 E24.7205
G1 X97.408 Y80.098 E24.74412
G1 X97.344 Y79.69 E24.75059
G0 F4500 X96.967 Y79.8
;TYPE:WALL-OUTER
G1 F1200 X97.033 Y79.96 E24.7533
G1 X97.033 Y80.669 E24.76442
G1 X99.734 Y79.5 E24.81055
G1 X97.033 Y78.331 E24.85669
G1 X97.033 Y79.04 E24.8678
G1 X96.967 Y79.2 E24.87051
G1 F1107.9 X96.808 Y79.295 E24.87363
G1 F1027.8 X93.663 Y79.295 E24.93033
G1 X93.663 Y79.705 E24.93772
G1 X96.808 Y79.705 E24.99441
G1 F1107.9 X96.967 Y79.8 E24.99754
G0 F4500 X97.728 Y79.693
G1 F2700 E19.99754
G1 F1200 Z1.25
G0 F4500 X123.695 Y136.469 Z1.25
G1 F1200 Z0.25
G1 F2700 E24.99754
