;FLAVOR:Marlin
;TIME:201
;Filament used: 0.0377524m, 0.035491m
;Layer height: 0.2
;MINX:75
;MINY:80.067
;MINZ:0.25
;MAXX:207.656
;MAXY:206.963
;MAXZ:20.001
;TARGET_MACHINE.NAME:Syncraft IDEX
;Generated with Cura_SteamEngine 5.8.0


; Pre-Processed for Cancel-Object support by preprocess_cancellation v0.2.0
; 2 known objects
EXCLUDE_OBJECT_DEFINE NAME=IDEX_offset_calibration_ref_STL CENTER=128.136,126.345 POLYGON=[[82.63,80.067],[82.63,206.963],[207.656,206.963],[207.656,80.067]]
EXCLUDE_OBJECT_DEFINE NAME=IDEX_offset_calibration_offset_STL CENTER=136.836,135.803 POLYGON=[[100.248,99.552],[100.248,203.228],[203.852,203.228],[203.852,99.552]]
T0
M82 ;absolute extrusion mode
;Nozzle diameter = 0.4
SET_GCODE_VARIABLE MACRO=DC_VARS VARIABLE=extruder1_in_use VALUE=1
M605 S0
M900 P0.4 S80
BREAK_CLEAN P=50
G21 ; set units to millimeters
G90 ; use absolute positioning
M82 ; absolute extrusion mode
M104 T0 S150 ; set extruder temp
_idexSyncExtrudersTemp
set_bed_temperature
G28 Z ; home z
M109 T0 S150
G28 XY; home XY
START_GCODE
set_calibration_temperature T=0 R=1
PRIME_ROUTINE
G92 E0
T0
G92 E0
G1 F2700 E-6.5
;LAYER_COUNT:1
G0 F18000 X75 Y150
;LAYER:0
M107
set_calibration_temperature T=1 R=0
G1 F600 Z0.75
G0 F9000 X84.975 Y123.553 Z0.75
;TYPE:SKIRT
G1 F600 Z0.25
G1 F2100 E0
G1 F1920 X84.935 Y120.752 E0.04479
G1 X84.82 Y118.036 E0.08825
G1 X84.628 Y115.322 E0.13176
G1 X84.353 Y112.548 E0.17633
G1 X84.012 Y109.884 E0.21927
G1 X83.581 Y107.144 E0.26362
G1 X83.079 Y104.409 E0.30808
G1 X83.309 Y101.125 E0.36072
G1 X83.421 Y98.409 E0.40418
G1 X83.457 Y95.648 E0.44833
G1 X83.415 Y92.9 E0.49227
G1 X83.297 Y90.178 E0.53583
G1 X82.982 Y86.081 E0.60153
G1 X83.076 Y85.441 E0.61188
G1 X83.451 Y84.511 E0.62791
G1 X83.92 Y83.893 E0.64031
G1 X84.882 Y82.959 E0.66175
G1 X85.466 Y82.618 E0.67256
G1 X85.935 Y82.437 E0.6806
G1 X86.599 Y82.313 E0.6914
G1 X89.611 Y82.081 E0.7397
G1 X92.317 Y81.793 E0.78321
G1 X95.027 Y81.427 E0.82694
G1 X97.72 Y80.986 E0.87057
G1 X100.671 Y80.419 E0.91862
G1 X101.484 Y80.458 E0.93163
G1 X104.156 Y81.187 E0.97591
G1 X106.839 Y81.841 E1.02007
G1 X109.534 Y82.417 E1.06413
G1 X112.205 Y82.911 E1.10756
G1 X114.886 Y83.328 E1.15095
G1 X117.626 Y83.676 E1.19511
G1 X120.363 Y83.944 E1.23908
G1 X123.081 Y84.134 E1.28264
G1 X125.794 Y84.245 E1.32606
G1 X128.485 Y84.282 E1.36909
G1 X202.272 Y84.282 E2.54887
G1 X203.308 Y84.297 E2.56543
G1 X203.959 Y84.465 E2.57618
G1 X204.843 Y84.938 E2.59221
G1 X205.536 Y85.664 E2.60826
G1 X205.967 Y86.57 E2.6243
G1 X206.09 Y87.292 E2.63601
G1 X206.164 Y88.671 E2.65809
G1 X206.357 Y91.422 E2.70219
G1 X206.63 Y94.177 E2.74645
G1 X206.975 Y96.885 E2.7901
G1 X207.305 Y99.098 E2.82587
G1 X207.306 Y119.183 E3.14701
G1 X207.291 Y120.249 E3.16406
G1 X207.123 Y120.901 E3.17482
G1 X206.651 Y121.786 E3.19086
G1 X205.925 Y122.479 E3.20691
G1 X204.798 Y123.008 E3.22681
G1 X202.253 Y124.034 E3.27069
G1 X199.768 Y125.119 E3.31404
G1 X197.27 Y126.293 E3.35817
G1 X194.822 Y127.532 E3.40204
G1 X192.424 Y128.83 E3.44564
G1 X190.032 Y130.215 E3.48984
G1 X187.734 Y131.632 E3.533
G1 X185.423 Y133.148 E3.57719
G1 X183.194 Y134.705 E3.62067
G1 X180.964 Y136.358 E3.66505
G1 X178.842 Y138.025 E3.7082
G1 X176.711 Y139.801 E3.75255
G1 X174.665 Y141.603 E3.79614
G1 X172.672 Y143.463 E3.83973
G1 X170.718 Y145.393 E3.88364
G1 X168.819 Y147.378 E3.92757
G1 X166.992 Y149.4 E3.97114
G1 X165.198 Y151.501 E4.01531
G1 X163.499 Y153.609 E4.0586
G1 X161.839 Y155.792 E4.10245
G1 X159.726 Y158.749 E4.16056
G1 X159.189 Y159.214 E4.17192
G1 X158.493 Y159.715 E4.18563
G1 X157.458 Y160.438 E4.20581
G1 X155.224 Y162.093 E4.25027
G1 X153.113 Y163.755 E4.29323
G1 X150.993 Y165.52 E4.33733
G1 X148.918 Y167.352 E4.38159
G1 X146.942 Y169.197 E4.42482
G1 X144.996 Y171.118 E4.46854
G1 X143.087 Y173.115 E4.51271
G1 X141.26 Y175.139 E4.5563
G1 X139.49 Y177.212 E4.59989
G1 X137.759 Y179.36 E4.644
G1 X136.099 Y181.546 E4.68788
G1 X134.503 Y183.774 E4.7317
G1 X132.989 Y186.019 E4.775
G1 X131.507 Y188.356 E4.81925
G1 X130.122 Y190.684 E4.86256
G1 X128.777 Y193.096 E4.90671
G1 X127.511 Y195.529 E4.95057
G1 X126.326 Y197.97 E4.99395
G1 X125.182 Y200.507 E5.03845
G1 X124.133 Y203.024 E5.08205
G1 X123.386 Y204.912 E5.11451
G1 X122.998 Y205.462 E5.12527
G1 X122.646 Y205.822 E5.13332
G1 X121.795 Y206.353 E5.14936
G1 X121.318 Y206.512 E5.1574
G1 X120.571 Y206.613 E5.16945
G1 X100.626 Y206.613 E5.48835
G1 X99.718 Y206.599 E5.50287
G1 X96.294 Y206.104 E5.55819
G1 X93.545 Y205.79 E5.60243
G1 X90.809 Y205.557 E5.64633
G1 X87.636 Y205.377 E5.69715
G1 X86.994 Y205.181 E5.70788
G1 X86.542 Y204.961 E5.71592
G1 X85.77 Y204.32 E5.73196
G1 X85.236 Y203.471 E5.748
G1 X85.077 Y202.993 E5.75605
G1 X84.976 Y202.251 E5.76802
G1 X84.975 Y123.553 E7.02633
G1 F2700 E0.52633
G1 F600 Z0.75
;MESH:IDEX offset calibration_ref.STL
EXCLUDE_OBJECT_START NAME=IDEX_offset_calibration_ref_STL
G0 F9000 X86.718 Y103.964 Z0.75
;TYPE:WALL-OUTER
G1 F600 Z0.25
G1 F2100 E7.02633
G1 F1920 X88.325 Y101.336 E7.1018
G0 F9000 X88.77 Y101.337
G1 F1920 X88.679 Y100.989 E7.10883
G1 X88.546 Y100.88 E7.11225
G1 X88.413 Y100.989 E7.11566
G1 X88.325 Y101.336 E7.12266
G1 X88.77 Y101.337 E7.13357
G0 F9000 X88.72 Y101.144
G0 X88.77 Y101.337
G1 F1920 X90.374 Y103.964 E7.20883
G1 F2700 E0.70883
G1 F600 Z0.75
G0 F9000 X88.546 Y100.88 Z0.75
G1 F600 Z0.25
G1 F2100 E7.20883
G1 F1920 X88.546 Y98.166 E7.27673
G1 F2700 E0.77673
G1 F600 Z0.75
G0 F9000 X93.899 Y103.771 Z0.75
G1 F600 Z0.25
G1 F2100 E7.27673
G1 F1920 X95.02 Y101.182 E7.32184
G1 X94.261 Y101.182 E7.33398
G1 X94.11 Y101.03 E7.33782
G1 X94.11 Y98.11 E7.39563
G1 X93.69 Y98.11 E7.40392
G1 X93.69 Y101.03 E7.46173
G1 X93.539 Y101.182 E7.46557
G1 X92.779 Y101.182 E7.47772
G1 X93.899 Y103.771 E7.52283
G0 F9000 X93.978 Y103.588
G0 X93.899 Y102.916
;TYPE:WALL-INNER
G1 F1920 X94.502 Y101.522 E7.54711
G1 X94.09 Y101.468 E7.55375
G1 X93.9 Y101.257 E7.55832
G1 X93.709 Y101.468 E7.5629
G1 X93.296 Y101.522 E7.56956
G1 X93.899 Y102.916 E7.59384
G0 F9000 X93.962 Y101.915
G0 X93.962 Y101.847
G1 F1920 X93.867 Y101.792 E7.59647
G1 X93.868 Y101.902 E7.59911
G1 X93.962 Y101.847 E7.60172
G1 F2700 E1.10172
G1 F600 Z0.75
G0 F9000 X103.84 Y103.488 Z0.75
;TYPE:WALL-OUTER
G1 F600 Z0.25
G1 F2100 E7.60172
G1 F1920 X104.18 Y103.148 E7.6126
G1 X86.836 Y85.804 E8.16742
G1 X86.496 Y86.144 E8.1783
G1 X103.84 Y103.488 E8.73311
G0 F9000 X103.981 Y103.347
G1 F2700 E2.23311
G1 F600 Z0.75
G0 F9000 X102.213 Y92.743 Z0.75
G1 F600 Z0.25
G1 F2100 E8.73311
G1 F1920 X100.609 Y90.241 E8.80523
G1 X100.394 Y90.044 E8.81341
G1 X100.176 Y90.242 E8.82162
G1 X98.574 Y92.741 E8.89351
G1 F2700 E2.39351
G1 F600 Z0.75
G0 F9000 X98.491 Y86.933 Z0.75
G1 F600 Z0.25
G1 F2100 E8.89351
G1 F1920 X100.2 Y89.6 E8.97067
G1 X100.394 Y89.762 E8.97777
G1 X100.586 Y89.6 E8.98482
G1 X102.293 Y86.933 E9.0618
G1 F2700 E2.5618
G1 F600 Z0.75
G0 F9000 X101.106 Y86.085 Z0.75
G1 F600 Z0.25
G1 F2100 E9.0618
G1 F1920 X103.697 Y84.963 E9.10695
G1 X101.106 Y83.843 E9.15208
G1 X101.106 Y84.544 E9.16329
G1 X100.936 Y84.754 E9.16812
G1 X98.034 Y84.754 E9.22544
G1 X98.034 Y85.174 E9.23373
G1 X100.936 Y85.174 E9.29105
G1 X101.106 Y85.323 E9.29509
G1 X101.106 Y86.085 E9.30727
G0 F9000 X101.289 Y86.006
G0 X101.446 Y85.568
;TYPE:WALL-INNER
G1 F1920 X102.84 Y84.964 E9.33156
G1 X101.446 Y84.36 E9.35585
G1 X101.392 Y84.774 E9.36253
G1 X101.296 Y84.906 E9.36514
G1 X101.154 Y84.964 E9.36759
G1 X101.296 Y85.022 E9.37004
G1 X101.392 Y85.154 E9.37265
G1 X101.446 Y85.568 E9.37933
G0 F9000 X101.834 Y84.964
G1 F1920 X101.739 Y84.909 E9.38195
G1 X101.74 Y85.019 E9.38458
G1 X101.834 Y84.964 E9.38718
G1 F2700 E2.88718
G1 F600 Z0.75
G0 F9000 X125.23 Y137.065 Z0.75
;TYPE:WALL-OUTER
G1 F600 Z0.25
G1 F2100 E9.38718
G1 F1920 X124.862 Y137.002 E9.39424
G1 X124.39 Y136.778 E9.40451
G1 X123.956 Y136.35 E9.41706
G1 X123.61 Y135.618 E9.4342
G1 X123.482 Y134.954 E9.44857
G1 X123.43 Y134.317 E9.46198
G1 X123.424 Y133.548 E9.47811
G1 X123.457 Y132.927 E9.49121
G1 X123.593 Y132.106 E9.50866
G1 X123.798 Y131.579 E9.52031
G1 X124.201 Y131.03 E9.53395
G1 X124.487 Y130.811 E9.54112
G1 X124.887 Y130.639 E9.54959
G1 X125.221 Y130.592 E9.556
G1 X125.77 Y130.68 E9.56651
G1 X126.258 Y130.94 E9.57725
G1 X126.692 Y131.42 E9.59046
G1 X126.999 Y132.125 E9.6068
G1 X127.175 Y132.926 E9.62439
G1 X127.209 Y133.792 E9.64281
G1 X127.185 Y134.511 E9.65804
G1 X127.062 Y135.315 E9.67536
G1 X126.745 Y136.112 E9.69323
G1 X126.453 Y136.521 E9.7033
G1 X125.886 Y136.928 E9.71705
G1 X125.23 Y137.065 E9.72997
G0 F9000 X125.033 Y137.032
G0 X125.197 Y137.469
G1 F1920 X126.072 Y137.302 E9.74715
G1 X126.495 Y137.051 E9.75705
G1 X126.969 Y136.581 E9.77086
G1 X127.363 Y135.84 E9.7887
G1 X127.536 Y135.309 E9.80083
G1 X127.635 Y134.545 E9.81739
G1 X127.661 Y133.899 E9.83113
G1 X127.646 Y133.257 E9.84484
G1 X127.567 Y132.575 E9.85956
G1 X127.424 Y131.943 E9.87358
G1 X127.164 Y131.369 E9.88715
G1 X126.782 Y130.847 E9.90072
G1 X126.498 Y130.591 E9.90849
G1 X126.084 Y130.36 E9.91794
G1 X125.37 Y130.192 E9.93226
G1 X125.03 Y130.197 E9.93878
G1 X124.463 Y130.346 E9.95036
G1 X124.102 Y130.548 E9.95876
G1 X123.632 Y131.014 E9.97249
G1 X123.196 Y131.814 E9.99186
G1 X123.033 Y132.69 E10.01088
G1 X122.977 Y133.413 E10.02629
G1 X122.974 Y134.117 E10.04126
G1 X123.039 Y135.015 E10.06031
G1 X123.184 Y135.783 E10.07692
G1 X123.453 Y136.355 E10.09051
G1 X123.801 Y136.838 E10.10316
G1 X124.118 Y137.114 E10.11186
G1 X124.515 Y137.324 E10.12094
G1 X125.197 Y137.469 E10.13452
G0 F9000 X125.393 Y137.432
G1 F2700 E3.63452
G1 F600 Z0.75
G0 F9000 X129.926 Y131.256 Z0.75
G1 F600 Z0.25
G1 F2100 E10.13452
G1 F1920 X130.194 Y131.1 E10.13947
G1 X130.34 Y130.839 E10.14425
G1 X130.279 Y130.533 E10.14924
G1 X130.107 Y130.35 E10.15326
G1 X129.863 Y130.261 E10.15741
G1 X129.459 Y130.333 E10.16397
G1 X129.281 Y130.544 E10.16839
G1 X129.256 Y130.925 E10.17449
G1 X129.411 Y131.15 E10.17886
G1 X129.652 Y131.268 E10.18315
G1 X129.926 Y131.256 E10.18754
G0 F9000 X130.098 Y131.156
G0 X129.979 Y130.731
;TYPE:WALL-INNER
G1 F1920 X129.917 Y130.636 E10.18929
G1 X129.664 Y130.607 E10.19321
G1 X129.577 Y130.803 E10.19652
G1 X129.722 Y130.931 E10.19951
G1 X129.947 Y130.857 E10.20316
G1 X129.979 Y130.731 E10.20516
G1 F2700 E3.70516
G1 F600 Z0.75
G0 F9000 X134.257 Y137.23 Z0.75
;TYPE:WALL-OUTER
G1 F600 Z0.25
G1 F2100 E10.20516
G1 F1920 X134.258 Y130.398 E10.35456
G1 X133.806 Y130.398 E10.36417
G1 X133.805 Y136.819 E10.50458
G1 X133.615 Y136.874 E10.50871
G1 X132.81 Y136.875 E10.52415
G1 X133.036 Y137.281 E10.53303
G1 X133.65 Y137.28 E10.54481
G1 X134.257 Y137.23 E10.55752
G0 F9000 X134.257 Y137.03
G1 F2700 E4.05752
G1 F600 Z0.75
G0 F9000 X138.218 Y135.37 Z0.75
G1 F600 Z0.25
G1 F2100 E10.55752
G1 F1920 X138.218 Y134.788 E10.56989
G1 X138.359 Y134.64 E10.5737
G1 X138.575 Y134.548 E10.57818
G1 X138.722 Y134.579 E10.58186
G1 X138.258 Y133.414 E10.61282
G1 X138.218 Y132.738 E10.62769
G1 X138.218 Y130.398 E10.67743
G1 X137.766 Y130.398 E10.68704
G1 X137.767 Y132.756 E10.73716
G1 X137.781 Y133.455 E10.75251
G1 X137.711 Y133.996 E10.76305
G1 X137.766 Y134.788 E10.77784
G1 X137.766 Y135.37 E10.79021
G1 X138.218 Y135.37 E10.79982
G0 F9000 X138.218 Y135.17
G0 X138.755 Y134.616
G1 F1920 X138.722 Y134.579 E10.80114
G1 F2700 E4.30114
G1 F600 Z0.75
G0 F9000 X143.976 Y135.459 Z0.75
G1 F600 Z0.25
G1 F2100 E10.80114
G1 F1920 X144.452 Y135.301 E10.81096
G1 X144.747 Y135.102 E10.81825
G1 X145.168 Y134.551 E10.83273
G1 X145.319 Y133.977 E10.84529
G1 X145.378 Y133.258 E10.86066
G1 X145.379 Y130.397 E10.92134
G1 X144.929 Y130.397 E10.93086
G1 X144.924 Y133.338 E10.99296
G1 X144.852 Y134.108 E11.00911
G1 X144.696 Y134.491 E11.01755
G1 X144.27 Y134.914 E11.0296
G1 X143.842 Y135.06 E11.03849
G1 X143.332 Y135.063 E11.04808
G1 X142.785 Y134.847 E11.05843
G1 X142.497 Y134.617 E11.06432
G1 X142.1 Y134.054 E11.07482
G1 X141.845 Y133.337 E11.08784
G1 X141.798 Y132.575 E11.10321
G1 X141.798 Y130.398 E11.14948
G1 X141.346 Y130.398 E11.15909
G1 X141.346 Y132.593 E11.20575
G1 X141.36 Y133.272 E11.2207
G1 X141.275 Y133.62 E11.22764
G1 X141.222 Y134.191 E11.23791
G1 X141.09 Y134.501 E11.24463
G1 X140.758 Y134.862 E11.25455
G1 X140.029 Y135.083 E11.26959
G1 X139.55 Y135.021 E11.27866
G1 X138.755 Y134.616 E11.29884
G1 X138.833 Y135.003 E11.30801
G1 X139.065 Y135.232 E11.31432
G1 X139.43 Y135.394 E11.3218
G1 X140.073 Y135.486 E11.33399
G1 X140.617 Y135.389 E11.34493
G1 X141.06 Y135.182 E11.355
G1 X141.377 Y134.884 E11.36412
G1 X141.613 Y134.347 E11.3762
G1 X141.947 Y134.342 E11.38214
G1 X142.352 Y134.97 E11.39416
G1 X142.854 Y135.305 E11.40466
G1 X143.283 Y135.453 E11.41298
G1 X143.976 Y135.459 E11.42596
G0 F9000 X144.165 Y135.397
G1 F2700 E4.92596
G1 F600 Z0.75
G0 F9000 X141.635 Y133.927 Z0.75
;TYPE:WALL-INNER
G1 F600 Z0.25
G1 F2100 E11.42596
G1 F1920 X141.617 Y133.671 E11.4309
G1 F2700 E4.9309
G1 F600 Z0.75
G0 F9000 X138.21 Y134.263 Z0.75
G1 F600 Z0.25
G1 F2100 E11.4309
G1 F1920 X138.111 Y134.206 E11.43374
G1 X138.111 Y134.32 E11.43657
G1 X138.21 Y134.263 E11.43941
G1 F2700 E4.93941
G1 F600 Z0.75
G0 F9000 X153.404 Y135.482 Z0.75
;TYPE:WALL-OUTER
G1 F600 Z0.25
G1 F2100 E11.43941
G1 F1920 X153.87 Y135.386 E11.44872
G1 X154.499 Y134.974 E11.46399
G1 X154.747 Y134.616 E11.47313
G1 X154.874 Y134.3 E11.48028
G1 X154.984 Y133.619 E11.49501
G1 X154.991 Y130.397 E11.56441
G1 X154.541 Y130.397 E11.57393
G1 X154.538 Y133.43 E11.63783
G1 X154.442 Y134.205 E11.65413
G1 X154.154 Y134.699 E11.66602
G1 X153.839 Y134.936 E11.67401
G1 X153.385 Y135.073 E11.68329
G1 X152.947 Y135.062 E11.69153
G1 X152.392 Y134.854 E11.70204
G1 X151.916 Y134.386 E11.71302
G1 X151.551 Y133.962 E11.72486
G1 X151.446 Y133.414 E11.7388
G1 X151.41 Y132.383 E11.76184
G1 X151.411 Y130.397 E11.80396
G1 X150.961 Y130.397 E11.81348
G1 X150.959 Y132.372 E11.85528
G1 X150.97 Y133.237 E11.87407
G1 X150.961 Y133.896 E11.89016
G1 X150.724 Y134.461 E11.90436
G1 X150.361 Y134.862 E11.9151
G1 X150.05 Y135.013 E11.92194
G1 X149.616 Y135.085 E11.93042
G1 X149.3 Y135.052 E11.93634
G1 X148.858 Y134.891 E11.94495
G1 X148.353 Y134.402 E11.95635
G1 X148.079 Y133.951 E11.96429
G1 X147.87 Y133.414 E11.97543
G1 X147.83 Y132.738 E11.9903
G1 X147.83 Y130.398 E12.04004
G1 X147.378 Y130.398 E12.04965
G1 X147.379 Y132.756 E12.09977
G1 X147.393 Y133.455 E12.11512
G1 X147.323 Y133.996 E12.12567
G1 X147.378 Y134.796 E12.1406
G1 X147.378 Y135.37 E12.1528
G1 X147.83 Y135.37 E12.16241
G1 X147.83 Y134.796 E12.17461
G1 X147.972 Y134.648 E12.17843
G1 X148.169 Y134.635 E12.1814
G1 X148.403 Y134.981 E12.188
G1 X148.675 Y135.238 E12.19469
G1 X149.311 Y135.456 E12.20711
G1 X149.684 Y135.488 E12.21419
G1 X150.153 Y135.42 E12.2234
G1 X150.721 Y135.145 E12.23622
G1 X150.987 Y134.881 E12.24415
G1 X151.294 Y134.209 E12.26093
G1 X151.428 Y134.188 E12.26435
G1 X151.727 Y134.663 E12.27618
G1 X152.154 Y135.133 E12.2866
G1 X152.571 Y135.357 E12.29501
G1 X153.026 Y135.471 E12.30375
G1 X153.404 Y135.482 E12.31097
G0 F9000 X153.599 Y135.442
G1 F2700 E5.81097
G1 F600 Z0.75
G0 F9000 X147.824 Y134.269 Z0.75
;TYPE:WALL-INNER
G1 F600 Z0.25
G1 F2100 E12.31097
G1 F1920 X147.725 Y134.212 E12.31383
G1 X147.725 Y134.326 E12.31668
G1 X147.824 Y134.269 E12.31954
G1 F2700 E5.81954
G1 F600 Z0.75
G0 F9000 X147.837 Y123.765 Z0.75
;TYPE:WALL-OUTER
G1 F600 Z0.25
G1 F2100 E12.31954
G1 F1920 X147.837 Y123.391 E12.32611
G1 X145.451 Y123.391 E12.36808
G1 X145.451 Y123.765 E12.37466
G1 X147.837 Y123.765 E12.41662
G0 F9000 X147.837 Y123.565
G1 F2700 E5.91662
G1 F600 Z0.75
G0 F9000 X167.261 Y126.631 Z0.75
G1 F600 Z0.25
G1 F2100 E12.41662
G1 F1920 X167.679 Y126.631 E12.42484
G1 X167.679 Y125.636 E12.44608
G1 X167.679 Y124.641 E12.47065
G1 X168.696 Y124.641 E12.49523
G1 X169.713 Y124.641 E12.51536
G1 X169.713 Y124.267 E12.52194
G1 X168.696 Y124.267 E12.54208
G1 X167.679 Y124.267 E12.56666
G1 X167.679 Y123.272 E12.59122
G1 X167.679 Y122.277 E12.61247
G1 X167.261 Y122.277 E12.62068
G1 X167.261 Y123.272 E12.64193
G1 X167.261 Y124.267 E12.66649
G1 X166.244 Y124.267 E12.69108
G1 X165.227 Y124.267 E12.71121
G1 X165.227 Y124.641 E12.71779
G1 X166.244 Y124.641 E12.73792
G1 X167.261 Y124.641 E12.76251
G1 X167.261 Y125.636 E12.78707
G1 X167.261 Y126.631 E12.80831
G0 F9000 X167.461 Y126.631
