;FLAVOR:Marlin
;TIME:186
;Filament used: 0.0493506m, 0.0355266m
;Layer height: 0.2
;MINX:75
;MINY:79.727
;MINZ:0.25
;MAXX:207.996
;MAXY:207.303
;MAXZ:20.001
;TARGET_MACHINE.NAME:Syncraft IDEX
;Generated with Cura_SteamEngine 5.8.0


; Pre-Processed for Cancel-Object support by preprocess_cancellation v0.2.0
; 2 known objects
EXCLUDE_OBJECT_DEFINE NAME=IDEX_offset_calibration_ref_STL CENTER=133.426,129.501 POLYGON=[[82.309,79.727],[82.309,207.303],[207.996,207.303],[207.996,79.727]]
EXCLUDE_OBJECT_DEFINE NAME=IDEX_offset_calibration_offset_STL CENTER=136.836,135.803 POLYGON=[[100.248,99.552],[100.248,203.228],[203.852,203.228],[203.852,99.552]]
T0
M82 ;absolute extrusion mode
;Nozzle diameter = 0.8
SET_GCODE_VARIABLE MACRO=DC_VARS VARIABLE=extruder1_in_use VALUE=1
M605 S0
M900 P0.8 S55
BREAK_CLEAN P=50
G21 ; set units to millimeters
G90 ; use absolute positioning
M82 ; absolute extrusion mode
M104 T0 S150 ; set extruder temp
_idexSyncExtrudersTemp
set_bed_temperature
G28 Z ; home z
M109 T0 S150
G28 XY; home XY
START_GCODE
set_calibration_temperature T=0 R=1
_primeRoutine
G92 E0
T0
G92 E0
G1 F2700 E-6.5
;LAYER_COUNT:1
G0 F30000 X75 Y150
;LAYER:0
M107
set_calibration_temperature T=1 R=0
G1 F600 Z0.75
G0 F15000 X84.805 Y123.555 Z0.75
;TYPE:SKIRT
G1 F600 Z0.25
G1 F1200 E0
G1 F1320 X84.766 Y120.763 E0.09822
G1 X84.65 Y118.054 E0.1936
G1 X84.456 Y115.312 E0.29029
G1 X84.186 Y112.586 E0.38665
G1 X83.842 Y109.898 E0.48197
G1 X83.412 Y107.16 E0.57947
G1 X82.908 Y104.418 E0.67753
G1 X83.139 Y101.106 E0.79432
G1 X83.251 Y98.401 E0.88955
G1 X83.287 Y95.648 E0.9864
G1 X83.246 Y92.91 E1.08272
G1 X83.128 Y90.2 E1.17814
G1 X82.877 Y86.855 E1.29613
G1 X82.832 Y85.941 E1.32832
G1 X83.106 Y84.7 E1.37302
G1 X83.737 Y83.856 E1.41009
G1 X84.748 Y82.845 E1.46038
G1 X85.612 Y82.331 E1.49575
G1 X86.586 Y82.144 E1.53063
G1 X89.58 Y81.913 E1.63626
G1 X92.28 Y81.626 E1.73177
G1 X95.006 Y81.258 E1.82853
G1 X97.7 Y80.816 E1.92456
G1 X100.651 Y80.25 E2.03026
G1 X101.5 Y80.286 E2.06015
G1 X104.199 Y81.023 E2.15856
G1 X106.875 Y81.675 E2.25545
G1 X109.567 Y82.25 E2.35228
G1 X112.223 Y82.741 E2.44729
G1 X114.935 Y83.164 E2.54384
G1 X117.631 Y83.506 E2.63943
G1 X120.357 Y83.773 E2.73578
G1 X123.1 Y83.964 E2.8325
G1 X125.803 Y84.075 E2.92766
G1 X128.488 Y84.112 E3.02212
G1 X202.275 Y84.112 E5.61763
G1 X203.316 Y84.127 E5.65425
G1 X204.296 Y84.373 E5.68979
G1 X205.294 Y85.107 E5.73337
G1 X205.899 Y85.941 E5.76961
G1 X206.246 Y87.019 E5.80945
G1 X206.334 Y88.659 E5.86722
G1 X206.528 Y91.428 E5.96486
G1 X206.801 Y94.173 E6.06189
G1 X207.14 Y96.842 E6.15653
G1 X207.432 Y98.798 E6.2261
G1 X207.476 Y99.605 E6.25453
G1 X207.476 Y119.186 E6.9433
G1 X207.461 Y120.261 E6.98112
G1 X207.293 Y120.93 E7.00538
G1 X206.819 Y121.845 E7.04163
G1 X206.089 Y122.571 E7.07785
G1 X205.583 Y122.882 E7.09874
G1 X202.309 Y124.195 E7.22282
G1 X199.803 Y125.289 E7.319
G1 X197.371 Y126.433 E7.41354
G1 X194.89 Y127.688 E7.51134
G1 X192.514 Y128.974 E7.60638
G1 X190.146 Y130.345 E7.70263
G1 X187.798 Y131.794 E7.79968
G1 X185.535 Y133.278 E7.89487
G1 X183.267 Y134.862 E7.99218
G1 X181.091 Y136.475 E8.08746
G1 X178.933 Y138.171 E8.18401
G1 X176.833 Y139.92 E8.28014
G1 X174.772 Y141.736 E8.37677
G1 X172.805 Y143.571 E8.47139
G1 X170.823 Y145.529 E8.56939
G1 X168.947 Y147.489 E8.66483
G1 X167.125 Y149.505 E8.76041
G1 X165.323 Y151.617 E8.85807
G1 X163.63 Y153.717 E8.95296
G1 X161.976 Y155.892 E9.04907
G1 X159.859 Y158.855 E9.17717
G1 X159.288 Y159.352 E9.2038
G1 X158.59 Y159.854 E9.23404
G1 X157.554 Y160.577 E9.27848
G1 X155.35 Y162.211 E9.37499
G1 X153.203 Y163.9 E9.47108
G1 X151.095 Y165.656 E9.56759
G1 X149.044 Y167.466 E9.66381
G1 X147.076 Y169.304 E9.75853
G1 X145.119 Y171.237 E9.85529
G1 X143.199 Y173.245 E9.95301
G1 X141.378 Y175.261 E10.04857
G1 X139.615 Y177.327 E10.14411
G1 X137.903 Y179.45 E10.24004
G1 X136.236 Y181.645 E10.337
G1 X134.646 Y183.866 E10.43308
G1 X133.138 Y186.103 E10.52798
G1 X131.652 Y188.446 E10.62557
G1 X130.249 Y190.803 E10.72206
G1 X128.939 Y193.153 E10.8167
G1 X127.67 Y195.591 E10.91338
G1 X126.469 Y198.066 E11.01015
G1 X125.341 Y200.566 E11.10662
G1 X124.291 Y203.087 E11.20268
G1 X123.541 Y204.982 E11.27437
G1 X122.965 Y205.809 E11.30982
G1 X121.924 Y206.483 E11.35345
G1 X120.82 Y206.783 E11.39369
G1 X100.623 Y206.783 E12.10413
G1 X99.699 Y206.769 E12.13664
G1 X96.218 Y206.265 E12.26036
G1 X93.549 Y205.961 E12.35485
G1 X90.818 Y205.728 E12.45127
G1 X87.618 Y205.546 E12.56401
G1 X86.653 Y205.258 E12.59944
G1 X85.48 Y204.316 E12.65236
G1 X84.94 Y203.14 E12.69787
G1 X84.806 Y202.475 E12.72174
G1 X84.805 Y123.555 E15.49781
G1 F2700 E8.99781
G1 F600 Z0.75
;MESH:IDEX offset calibration_ref.STL
EXCLUDE_OBJECT_START NAME=IDEX_offset_calibration_ref_STL
G0 F15000 X86.719 Y103.965 Z0.75
;TYPE:WALL-OUTER
G1 F600 Z0.25
G1 F1200 E15.49781
G1 F1320 X88.326 Y101.336 E15.59634
G1 F1315.7 X88.546 Y101.131 E15.60598
G0 F15000 X88.546 Y98.166
G1 F1315.7 X88.546 Y101.131 E15.70108
G1 X88.769 Y101.337 E15.71081
G1 F1320 X90.373 Y103.965 E15.80927
G0 F15000 X93.9 Y103.026
G1 F922.9 X94.567 Y101.48 E15.88338
G1 X94.11 Y101.43 E15.90362
G1 F977.4 X93.9 Y101.048 E15.92186
G1 X93.69 Y101.43 E15.94011
G1 F922.9 X93.233 Y101.48 E15.96034
G1 X93.9 Y103.026 E16.03445
G0 F15000 X94.058 Y102.659
G0 X93.901 Y102.089
G0 X93.9 Y101.048
G1 F1040.6 X93.9 Y98.32 E16.14247
G1 F2700 E9.64247
G1 F600 Z0.75
G0 F15000 X103.84 Y103.148 Z0.75
G1 F600 Z0.25
G1 F1200 E16.14247
G1 F891.2 X86.836 Y86.144 E17.23375
G1 F2700 E10.73375
G1 F600 Z0.75
G0 F15000 X98.494 Y86.935 Z0.75
G1 F600 Z0.25
G1 F1200 E17.23375
G1 F1320 X100.334 Y89.809 E17.34288
G1 X100.585 Y89.599 E17.35334
G1 X102.293 Y86.934 E17.45456
G1 F2700 E10.95456
G1 F600 Z0.75
G0 F15000 X102.21 Y92.741 Z0.75
G1 F600 Z0.25
G1 F1200 E17.45456
G1 F1320 X100.449 Y89.993 E17.55893
G1 X100.176 Y90.242 E17.57075
G1 X98.575 Y92.742 E17.66568
G1 F2700 E11.16568
G1 F600 Z0.75
G0 F15000 X101.404 Y85.633 Z0.75
G1 F600 Z0.25
G1 F1200 E17.66568
G1 F922.9 X102.949 Y84.964 E17.73979
G1 X101.404 Y84.297 E17.81386
G1 X101.354 Y84.754 E17.8341
G1 F979.9 X100.936 Y84.964 E17.85363
G1 X101.354 Y85.174 E17.87317
G1 F922.9 X101.404 Y85.633 E17.89349
G0 F15000 X101.77 Y85.475
G0 X100.936 Y84.964
G1 F1043.4 X98.244 Y84.964 E17.99983
G1 F2700 E11.49983
G1 F600 Z0.75
G0 F15000 X125.186 Y137.26 Z0.75
G1 F600 Z0.25
G1 F1200 E17.99983
G1 F1078 X125.975 Y137.116 E18.03061
G1 F1051.9 X126.862 Y136.47 E18.07364
G1 F1000.3 X127.262 Y135.428 E18.11941
G1 F957.8 X127.433 Y134.379 E18.1647
G1 F943.6 X127.402 Y132.874 E18.22968
G1 F929.7 X127.1 Y131.686 E18.28329
G1 F960.2 X126.539 Y130.901 E18.32431
G1 F1024.2 X125.986 Y130.551 E18.35059
G1 F1037.9 X125.378 Y130.42 E18.37528
G1 F970 X124.388 Y130.621 E18.41784
G1 F953 X123.918 Y130.989 E18.44339
G1 F970 X123.393 Y131.941 E18.4892
G1 F961.4 X123.199 Y133.219 E18.54409
G1 F962.6 X123.203 Y134.093 E18.58116
G1 F955.4 X123.238 Y134.876 E18.61463
G1 F957.8 X123.426 Y135.767 E18.65343
G1 F962.6 X123.885 Y136.613 E18.69425
G1 F981.1 X124.615 Y137.114 E18.73118
G1 F1037.9 X125.186 Y137.26 E18.75458
G1 F2700 E12.25458
G1 F600 Z0.75
G0 F15000 X130.149 Y130.659 Z0.75
G1 F600 Z0.25
G1 F1200 E18.75458
G1 F1403.6 X130.05 Y130.506 E18.76009
G1 X129.627 Y130.45 E18.77299
G1 X129.437 Y130.617 E18.78064
G1 X129.419 Y130.894 E18.78903
G1 X129.681 Y131.116 E18.79942
G1 X130.081 Y130.994 E18.81206
G1 X130.149 Y130.659 E18.8224
G0 F15000 X134.032 Y130.624
G1 F944.7 X134.031 Y133.795 E18.95914
G1 F915 X134.029 Y136.966 E19.09976
G1 F984.9 X133.155 Y137.078 E19.13639
G1 F2700 E12.63639
G1 F600 Z0.75
G0 F15000 X137.992 Y135.144 Z0.75
G1 F600 Z0.25
G1 F1200 E19.13639
G1 F960.2 X137.992 Y135.004 E19.14234
G1 F1137.1 X138.318 Y134.703 E19.15858
G1 F1350.5 X138.819 Y134.738 E19.17431
G1 F1216.9 X138.325 Y134.023 E19.20422
G1 F1029.6 X137.997 Y133.235 E19.23834
G1 F1117.8 X137.872 Y133.993 E19.26688
G1 F1366.3 X137.866 Y134.402 E19.27956
G1 F1137.1 X137.992 Y135.004 E19.30206
G0 F15000 X138.285 Y134.733
G0 X138.819 Y134.738
G1 F1167.2 X139.307 Y135.148 E19.32484
G1 F1060.5 X140.076 Y135.28 E19.35522
G1 F1024.2 X140.931 Y134.992 E19.39145
G1 F966.3 X141.184 Y134.752 E19.4062
G1 F839.8 X141.583 Y133.985 E19.44751
G0 F15000 X141.572 Y130.624
G1 F959 X141.573 Y132.6 E19.5316
G1 F913.9 X141.609 Y133.541 E19.57341
G1 F804.8 X141.583 Y133.985 E19.59545
G1 F896.5 X141.841 Y134.113 E19.60845
G1 F1179.2 X142.49 Y134.847 E19.64315
G1 F1188 X143.316 Y135.258 E19.6756
G1 F1111.5 X144.407 Y135.052 E19.71706
G1 F1021.5 X145.065 Y134.324 E19.75656
G1 F957.8 X145.152 Y133.255 E19.80226
G1 F962.6 X145.154 Y130.622 E19.91394
G1 F2700 E13.41394
G1 F600 Z0.75
G0 F15000 X137.992 Y130.624 Z0.75
G1 F600 Z0.25
G1 F1200 E19.91394
G1 F951.8 X137.997 Y133.235 E20.0258
G1 F2700 E13.5258
G1 F600 Z0.75
G0 F15000 X147.612 Y133.257 Z0.75
G1 F600 Z0.25
G1 F1200 E20.0258
G1 F949.4 X147.604 Y130.624 E20.13885
G0 F15000 X151.186 Y130.622
G1 F962.6 X151.185 Y132.393 E20.21397
G1 F934.3 X151.206 Y133.241 E20.25091
G0 F15000 X150.958 Y134.431
G1 F1254.7 X151.294 Y134.259 E20.26355
G1 F1427.8 X151.656 Y134.312 E20.27444
G1 F1177.5 X151.307 Y133.467 E20.30686
G1 F979.9 X151.206 Y133.241 E20.31719
G1 X151.146 Y133.481 E20.32752
G1 F1264.5 X150.939 Y133.914 E20.34348
G1 F1254.7 X150.958 Y134.431 E20.3608
G0 F15000 X151.294 Y134.259
G0 X151.316 Y134.262
G0 X148.43 Y134.731
G1 F1216.9 X148.787 Y135.071 E20.37777
G1 F1127.4 X149.333 Y135.255 E20.39902
G1 F1085.5 X150.115 Y135.211 E20.42889
G1 F990 X150.785 Y134.751 E20.46252
G1 F986.2 X150.958 Y134.431 E20.47763
G1 F1168.9 X151.656 Y134.312 E20.5029
G1 F1270.5 X152.255 Y134.968 E20.53231
G1 F1188 X152.989 Y135.27 E20.56023
G1 F1099.1 X153.798 Y135.181 E20.59092
G1 F1013.4 X154.355 Y134.796 E20.61837
G1 F962.6 X154.642 Y134.361 E20.64048
G1 F945.9 X154.763 Y133.504 E20.67776
G1 F955.4 X154.766 Y130.622 E20.80082
G1 F2700 E14.30082
G1 F600 Z0.75
G0 F15000 X147.604 Y135.02 Z0.75
G1 F600 Z0.25
G1 F1200 E20.80082
G1 F960.2 X147.604 Y135.144 E20.80609
G0 F15000 X147.604 Y135.02
G1 F1142 X147.927 Y134.724 E20.82206
G1 F1350.5 X148.43 Y134.731 E20.83781
G1 F1328.6 X147.904 Y133.945 E20.86788
G1 F1113.1 X147.612 Y133.257 E20.89575
G1 X147.485 Y133.993 E20.9236
G1 F1373.1 X147.475 Y134.428 E20.93703
G1 F1142 X147.604 Y135.02 E20.95911
G0 F15000 X147.898 Y134.75
G1 F2700 E14.45911
G1 F600 Z0.75
G0 F15000 X147.65 Y123.578 Z0.75
G1 F600 Z0.25
G1 F1200 E20.95911
G1 F1188 X145.638 Y123.578 E21.02988
G1 F2700 E14.52988
G1 F600 Z0.75
G0 F15000 X165.414 Y124.454 Z0.75
G1 F600 Z0.25
G1 F1200 E21.02988
G1 F1099.1 X167.261 Y124.454 E21.09954
G1 F866.3 X167.47 Y124.454 E21.10926
G1 F876.5 X167.47 Y124.828 E21.12648
G1 F1049.1 X167.47 Y126.422 E21.18915
G0 F15000 X169.526 Y124.454
G1 F1188 X167.888 Y124.454 E21.24677
G1 F924 X167.47 Y124.454 E21.26515
G1 F874.5 X167.47 Y124.116 E21.28074
G1 F1046.2 X167.47 Y122.486 E21.34497
G1 F2700 E14.84497
G1 F600 Z0.75
G0 F15000 X156.96 Y121.396 Z0.75
G1 F600 Z0.25
G1 F1200 E21.34497
G1 F1162 X156.96 Y127.208 E21.55352
G1 F1153.6 X156.96 Y133.02 E21.76342
G1 F1145.3 X156.959 Y138.832 E21.9747
G1 F1135.5 X156.959 Y144.644 E22.18761
G1 F1127.4 X156.959 Y150.456 E22.40189
G1 F1119.4 X156.958 Y156.268 E22.61754
G1 X151.147 Y156.266 E22.83315
G1 F1127.4 X145.336 Y156.266 E23.04739
G1 F1135.5 X139.525 Y156.267 E23.26027
G1 F1145.3 X133.714 Y156.267 E23.47151
G1 F1153.6 X127.903 Y156.267 E23.68138
G1 F1162 X122.092 Y156.268 E23.88989
G1 F2700 E17.38989
G1 F600 Z0.75
G0 F15000 X127.066 Y165.27 Z0.75
G1 F600 Z0.25
G1 F1200 E23.88989
G1 F1099.1 X127.066 Y167.117 E23.95955
G1 F866.3 X127.066 Y167.326 E23.96927
G1 F876.5 X127.44 Y167.326 E23.98649
G1 F1049.1 X129.034 Y167.326 E24.04915
G0 F15000 X127.066 Y169.382
G1 F1188 X127.066 Y167.744 E24.10677
G1 F924 X127.066 Y167.326 E24.12515
G1 F876.5 X126.692 Y167.326 E24.14237
G1 F1049.1 X125.098 Y167.326 E24.20503
G1 F2700 E17.70503
G1 F600 Z0.75
G0 F15000 X126.19 Y147.59 Z0.75
G1 F600 Z0.25
G1 F1200 E24.20503
G1 F1188 X126.19 Y145.578 E24.27581
G1 F2700 E17.77581
G1 F600 Z0.75
G0 F15000 X103.454 Y137.23 Z0.75
G1 F600 Z0.25
G1 F1200 E24.27581
G1 F1307.3 X95.974 Y137.23 E24.51711
G1 F1286.6 X88.494 Y137.23 E24.76194
G0 F15000 X88.494 Y141.036
G1 F1299 X98.444 Y141.036 E25.0848
G0 F15000 X98.444 Y144.844
G1 F1299 X88.494 Y144.844 E25.40766
G0 F15000 X88.494 Y148.652
G1 F1299 X98.444 Y148.652 E25.73052
G0 F15000 X98.444 Y152.46
G1 F1299 X88.494 Y152.46 E26.05338
G0 F15000 X88.494 Y156.268
G1 F1288.7 X95.975 Y156.268 E26.29788
G1 F1309.4 X103.456 Y156.268 E26.53887
G1 F2700 E20.03887
G1 F600 Z0.75
G0 F15000 X98.444 Y160.076 Z0.75
G1 F600 Z0.25
G1 F1200 E26.53887
G1 F1299 X88.494 Y160.076 E26.86173
G0 F15000 X88.494 Y163.884
G1 F1299 X98.444 Y163.884 E27.18459
G0 F15000 X98.442 Y167.69
G1 F1307.3 X93.468 Y167.69 E27.34505
G1 F1286.6 X88.494 Y167.69 E27.50785
G0 F15000 X88.495 Y171.498
G1 F1286.6 X93.469 Y171.498 E27.67065
G1 F1307.3 X98.443 Y171.498 E27.83111
G1 F2700 E21.33111
G1 F600 Z0.75
G0 F15000 X103.454 Y175.306 Z0.75
G1 F600 Z0.25
G1 F1200 E27.83111
G1 F1307.3 X95.974 Y175.306 E28.07242
G1 F1286.6 X88.494 Y175.306 E28.31724
G0 F15000 X88.494 Y179.112
G1 F1299 X98.444 Y179.112 E28.6401
G0 F15000 X98.444 Y182.92
G1 F1299 X88.494 Y182.92 E28.96296
G0 F15000 X88.494 Y186.728
G1 F1299 X98.444 Y186.728 E29.28582
G0 F15000 X98.444 Y190.536
G1 F1299 X88.494 Y190.536 E29.60868
G0 F15000 X88.494 Y194.344
G1 F1288.7 X95.975 Y194.344 E29.85318
G1 F1309.4 X103.456 Y194.344 E30.09417
G1 F2700 E23.59417
G1 F600 Z0.75
G0 F15000 X98.444 Y198.152 Z0.75
G1 F600 Z0.25
G1 F1200 E30.09417
G1 F1299 X88.494 Y198.152 E30.41703
G1 F2700 E23.91703
G1 F600 Z0.75
G0 F15000 X98.444 Y201.96 Z0.75
G1 F600 Z0.25
G1 F1200 E30.41703
G1 F1320 X88.426 Y201.96 E30.73738
G1 X88.424 Y106.77 E33.78136
G1 X107.46 Y106.766 E34.3901
G1 X107.462 Y87.734 E34.9987
G1 X202.652 Y87.732 E38.04268
G1 X202.652 Y97.752 E38.3631
G0 F15000 X198.844 Y97.752
G1 F1299 X198.844 Y87.802 E38.68596
G0 F15000 X195.036 Y87.802
G1 F1288.7 X195.036 Y95.281 E38.9304
G1 F1309.4 X195.036 Y102.76 E39.17132
G1 F2700 E32.67132
G1 F600 Z0.75
G0 F15000 X191.228 Y97.752 Z0.75
G1 F600 Z0.25
G1 F1200 E39.17132
G1 F1299 X191.228 Y87.802 E39.49418
G0 F15000 X187.42 Y87.802
G1 F1299 X187.42 Y97.752 E39.81704
G0 F15000 X183.614 Y97.75
G1 F1307.3 X183.614 Y92.776 E39.9775
G1 F1286.6 X183.614 Y87.802 E40.1403
G0 F15000 X179.806 Y87.803
G1 F1286.6 X179.806 Y92.777 E40.3031
G1 F1307.3 X179.806 Y97.751 E40.46356
G1 F2700 E33.96356
G1 F600 Z0.75
G0 F15000 X175.998 Y102.758 Z0.75
G1 F600 Z0.25
G1 F1200 E40.46356
G1 F1307.3 X175.998 Y95.28 E40.70481
G1 F1286.6 X175.998 Y87.802 E40.94956
G0 F15000 X172.192 Y87.802
G1 F1299 X172.192 Y97.752 E41.27242
G0 F15000 X168.384 Y97.752
G1 F1299 X168.384 Y87.802 E41.59528
G0 F15000 X164.576 Y87.802
G1 F1299 X164.576 Y97.752 E41.91814
G0 F15000 X160.768 Y97.752
G1 F1299 X160.768 Y87.802 E42.241
G0 F15000 X156.96 Y87.802
G1 F1288.7 X156.96 Y95.281 E42.48544
G1 F1309.4 X156.96 Y102.76 E42.72636
G1 F2700 E36.22636
G1 F600 Z0.75
G0 F15000 X153.152 Y97.752 Z0.75
G1 F600 Z0.25
G1 F1200 E42.72636
G1 F1299 X153.152 Y87.802 E43.04922
G0 F15000 X149.344 Y87.802
G1 F1299 X149.344 Y97.752 E43.37208
G0 F15000 X145.538 Y97.75
G1 F1307.3 X145.538 Y92.776 E43.53254
G1 F1286.6 X145.538 Y87.802 E43.69534
G0 F15000 X141.73 Y87.803
G1 F1286.6 X141.73 Y92.777 E43.85814
G1 F1307.3 X141.73 Y97.751 E44.01861
G1 F2700 E37.51861
G1 F600 Z0.75
G0 F15000 X137.922 Y102.758 Z0.75
G1 F600 Z0.25
G1 F1200 E44.01861
G1 F1307.3 X137.922 Y95.28 E44.25985
G1 F1286.6 X137.922 Y87.802 E44.50461
G0 F15000 X134.116 Y87.802
G1 F1299 X134.116 Y97.752 E44.82747
G0 F15000 X130.308 Y97.752
G1 F1299 X130.308 Y87.802 E45.15032
G0 F15000 X126.5 Y87.802
G1 F1299 X126.5 Y97.752 E45.47318
G0 F15000 X122.692 Y97.752
G1 F1299 X122.692 Y87.802 E45.79604
G0 F15000 X118.884 Y87.802
G1 F1288.7 X118.884 Y95.281 E46.04048
G1 F1309.4 X118.884 Y102.76 E46.2814
G1 F2700 E39.7814
G1 F600 Z0.75
G0 F15000 X115.076 Y97.752 Z0.75
G1 F600 Z0.25
G1 F1200 E46.2814
G1 F1299 X115.076 Y87.802 E46.60426
G0 F15000 X111.268 Y87.802
G1 F1299 X111.268 Y97.752 E46.92712
G1 F2700 E40.42712
G1 F600 Z0.75
