;FLAVOR:Marlin
;TIME:201
;Filament used: 0.0230288m, 0.0220843m
;Layer height: 0.2
;MINX:75
;MINY:80.258
;MINZ:0.16
;MAXX:207.464
;MAXY:206.771
;MAXZ:20.001
;TARGET_MACHINE.NAME:Syncraft IDEX
;Generated with Cura_SteamEngine 5.8.0


; Pre-Processed for Cancel-Object support by preprocess_cancellation v0.2.0
; 2 known objects
EXCLUDE_OBJECT_DEFINE NAME=IDEX_offset_calibration_ref_STL CENTER=128.464,126.191 POLYGON=[[82.847,80.258],[82.847,206.771],[207.464,206.771],[207.464,80.258]]
EXCLUDE_OBJECT_DEFINE NAME=IDEX_offset_calibration_offset_STL CENTER=136.486,134.965 POLYGON=[[100.105,99.41],[100.105,203.3],[203.995,203.3],[203.995,99.41]]
T0
M82 ;absolute extrusion mode
;Nozzle diameter = 0.25
SET_GCODE_VARIABLE MACRO=DC_VARS VARIABLE=extruder1_in_use VALUE=1
M605 S0
M900 P0.25 S100
BREAK_CLEAN P=50
G21 ; set units to millimeters
G90 ; use absolute positioning
M82 ; absolute extrusion mode
M104 T0 S150 ; set extruder temp
_SYNC_EXTRUDERS_TEMP
set_bed_temperature
G28 Z ; home z
M109 T0 S150
G28 XY; home XY
START_GCODE
set_calibration_temperature T=0 R=1
PRIME_ROUTINE
G92 E0
T0
G92 E0
G1 F2700 E-6.5
;LAYER_COUNT:1
G0 F30000 X75 Y150
;LAYER:0
M107
M104 T1 S100
G1 F600 Z0.66
G0 F15000 X85.039 Y123.552 Z0.66
set_calibration_temperature T=1 R=0
;TYPE:SKIRT
G1 F600 Z0.16
G1 F1200 E0
G1 F2400 X84.999 Y120.75 E0.01967
G1 X84.884 Y118.029 E0.03878
G1 X84.691 Y115.307 E0.05794
G1 X84.419 Y112.567 E0.07726
G1 X84.07 Y109.835 E0.09659
G1 X83.649 Y107.158 E0.11561
G1 X83.143 Y104.404 E0.13526
G1 X83.373 Y101.131 E0.15829
G1 X83.485 Y98.414 E0.17738
G1 X83.521 Y95.648 E0.19679
G1 X83.479 Y92.896 E0.21611
G1 X83.361 Y90.173 E0.23524
G1 X83.11 Y86.833 E0.25875
G1 X83.067 Y85.938 E0.26504
G1 X83.14 Y85.446 E0.26853
G1 X83.517 Y84.527 E0.2755
G1 X83.907 Y84.016 E0.28001
G1 X84.909 Y83.017 E0.28994
G1 X85.502 Y82.672 E0.29476
G1 X85.968 Y82.494 E0.29826
G1 X86.604 Y82.377 E0.3028
G1 X89.586 Y82.147 E0.32379
G1 X92.337 Y81.855 E0.34321
G1 X95.042 Y81.489 E0.36236
G1 X97.744 Y81.047 E0.38158
G1 X100.685 Y80.481 E0.4026
G1 X101.479 Y80.523 E0.40818
G1 X104.122 Y81.244 E0.42741
G1 X106.843 Y81.908 E0.44707
G1 X109.508 Y82.477 E0.46619
G1 X112.183 Y82.972 E0.48529
G1 X114.908 Y83.396 E0.50464
G1 X117.611 Y83.739 E0.52377
G1 X120.354 Y84.008 E0.54311
G1 X123.073 Y84.198 E0.56224
G1 X125.79 Y84.309 E0.58133
G1 X128.484 Y84.346 E0.60024
G1 X202.863 Y84.346 E1.12227
G1 X203.465 Y84.403 E1.12652
G1 X204.403 Y84.73 E1.13349
G1 X205.19 Y85.336 E1.14046
G1 X205.745 Y86.159 E1.14743
G1 X205.917 Y86.627 E1.15093
G1 X206.027 Y87.295 E1.15568
G1 X206.104 Y88.726 E1.16574
G1 X206.294 Y91.434 E1.18479
G1 X206.567 Y94.188 E1.20421
G1 X206.912 Y96.904 E1.22343
G1 X207.04 Y97.72 E1.22923
G1 X207.241 Y99.117 E1.23913
G1 X207.242 Y119.806 E1.38434
G1 X207.185 Y120.407 E1.38858
G1 X207.06 Y120.89 E1.39208
G1 X206.588 Y121.763 E1.39904
G1 X205.864 Y122.443 E1.40601
G1 X205.246 Y122.766 E1.41091
G1 X202.246 Y123.968 E1.43359
G1 X199.715 Y125.073 E1.45298
G1 X197.243 Y126.236 E1.47215
G1 X194.778 Y127.482 E1.49153
G1 X192.39 Y128.775 E1.51059
G1 X190.01 Y130.153 E1.5299
G1 X187.693 Y131.582 E1.549
G1 X185.403 Y133.085 E1.56823
G1 X183.14 Y134.665 E1.5876
G1 X180.936 Y136.299 E1.60686
G1 X178.784 Y137.989 E1.62606
G1 X176.675 Y139.747 E1.64533
G1 X174.642 Y141.538 E1.66435
G1 X172.611 Y143.432 E1.68384
G1 X170.673 Y145.348 E1.70297
G1 X168.786 Y147.319 E1.72212
G1 X166.941 Y149.361 E1.74143
G1 X165.145 Y151.464 E1.76084
G1 X163.458 Y153.558 E1.77972
G1 X161.783 Y155.761 E1.79914
G1 X159.565 Y158.864 E1.82591
G1 X158.456 Y159.663 E1.8355
G1 X157.404 Y160.398 E1.84451
G1 X155.213 Y162.022 E1.86365
G1 X153.059 Y163.716 E1.88289
G1 X150.937 Y165.484 E1.90227
G1 X148.894 Y167.287 E1.9214
G1 X146.881 Y169.167 E1.94073
G1 X144.95 Y171.074 E1.95977
G1 X143.061 Y173.05 E1.97896
G1 X141.21 Y175.099 E1.99834
G1 X139.421 Y177.195 E2.01768
G1 X137.718 Y179.307 E2.03672
G1 X136.056 Y181.496 E2.05601
G1 X134.445 Y183.744 E2.07543
G1 X132.93 Y185.992 E2.09445
G1 X131.456 Y188.316 E2.11377
G1 X130.06 Y190.663 E2.13293
G1 X128.722 Y193.063 E2.15222
G1 X127.454 Y195.5 E2.1715
G1 X126.26 Y197.958 E2.19068
G1 X125.134 Y200.456 E2.20991
G1 X124.052 Y203.052 E2.22965
G1 X123.326 Y204.888 E2.24351
G1 X122.942 Y205.429 E2.24816
G1 X122.191 Y206.078 E2.25513
G1 X121.273 Y206.457 E2.2621
G1 X120.582 Y206.548 E2.26699
G1 X100.627 Y206.549 E2.40705
G1 X99.721 Y206.535 E2.41341
G1 X96.278 Y206.037 E2.43782
G1 X93.562 Y205.727 E2.45701
G1 X90.816 Y205.493 E2.47635
G1 X87.646 Y205.313 E2.49864
G1 X87.008 Y205.118 E2.50332
G1 X86.156 Y204.609 E2.51029
G1 X85.508 Y203.857 E2.51725
G1 X85.13 Y202.939 E2.52422
G1 X85.04 Y202.246 E2.52913
G1 X85.039 Y123.552 E3.08145
G1 F2700 E-3.41855
G1 F600 Z0.66
;MESH:IDEX offset calibration_ref.STL
EXCLUDE_OBJECT_START NAME=IDEX_offset_calibration_ref_STL
G0 F15000 X90.607 Y104.095 Z0.66
;TYPE:WALL-OUTER
G1 F600 Z0.16
G1 F1200 E3.08145
G1 F1929.3 X88.897 Y101.299 E3.1069
G1 F1730.7 X88.679 Y101.04 E3.10979
G1 F1703.3 X88.679 Y98.033 E3.13586
G1 F1856.2 X88.413 Y98.033 E3.13799
G1 F1703.3 X88.412 Y101.034 E3.16401
G1 F1716.9 X88.196 Y101.294 E3.16691
G1 F1896.2 X86.487 Y104.094 E3.19278
G1 F1912.6 X86.791 Y104.094 E3.19516
G1 F1896.2 X88.42 Y101.431 E3.21978
G1 F1577.1 X88.543 Y101.324 E3.22129
G1 F1595 X88.678 Y101.433 E3.22288
G1 F1929.3 X90.305 Y104.095 E3.24711
G1 X90.607 Y104.095 E3.24945
G0 F15000 X90.542 Y103.989
G0 X93.9 Y103.933
G1 F2400 X95.118 Y101.118 E3.26902
G1 X94.32 Y101.118 E3.27411
G1 X94.244 Y101.087 E3.27464
G1 X94.214 Y101.022 E3.27509
G1 X94.214 Y98.006 E3.29434
G1 X93.586 Y98.006 E3.29834
G1 X93.586 Y101.022 E3.31759
G1 X93.556 Y101.087 E3.31804
G1 X93.48 Y101.118 E3.31857
G1 X92.682 Y101.118 E3.32366
G1 X93.9 Y103.933 E3.34323
G0 F15000 X93.949 Y103.819
G0 X93.9 Y103.399
;TYPE:WALL-INNER
G1 F2400 X94.796 Y101.33 E3.35762
G1 X94.32 Y101.33 E3.36065
G1 X94.094 Y101.236 E3.36222
G1 F2412.5 X94.004 Y101.04 E3.36359
G1 F2437.9 X94.004 Y98.216 E3.38135
G1 F2450.8 X93.796 Y98.216 E3.38265
G1 F2437.9 X93.796 Y101.04 E3.40041
G1 F2412.5 X93.706 Y101.236 E3.40178
G1 F2400 X93.48 Y101.33 E3.40335
G1 X93.004 Y101.33 E3.40638
G1 X93.9 Y103.399 E3.42077
G0 F15000 X93.9 Y102.866
G1 F2400 X94.473 Y101.542 E3.42997
G1 X94.081 Y101.486 E3.4325
G1 X93.943 Y101.386 E3.43359
G1 X93.9 Y101.291 E3.43425
G1 X93.857 Y101.386 E3.43492
G1 X93.719 Y101.486 E3.43601
G1 X93.327 Y101.542 E3.43853
G1 X93.9 Y102.866 E3.44774
G0 F15000 X93.898 Y102.284
;TYPE:SKIN
G1 F2400 X94.135 Y101.734 E3.45405
G1 X93.898 Y101.637 E3.45674
G1 X93.66 Y101.733 E3.45945
G1 X93.898 Y102.284 E3.46577
G1 F2700 E-3.03423
G1 F600 Z0.66
G0 F15000 X103.84 Y103.678 Z0.66
;TYPE:WALL-OUTER
G1 F600 Z0.16
G1 F1200 E3.46577
G1 F2400 X104.37 Y103.148 E3.47055
G1 X86.836 Y85.61 E3.62879
G1 X86.302 Y86.144 E3.63361
G1 X103.84 Y103.678 E3.79184
G0 F15000 X103.928 Y103.59
G0 X103.84 Y103.338
;TYPE:WALL-INNER
G1 F1840.6 X104.03 Y103.148 E3.79402
G1 F1832.9 X86.836 Y85.952 E3.99162
G1 F1817.6 X86.644 Y86.144 E3.99385
G1 F1832.9 X103.84 Y103.338 E4.19145
G1 F2700 E-2.30855
G1 F600 Z0.66
G0 F15000 X102.445 Y92.871 Z0.66
;TYPE:WALL-OUTER
G1 F600 Z0.16
G1 F1200 E4.19145
G1 F1929.3 X100.733 Y90.2 E4.21609
G1 F1625.6 X100.544 Y89.984 E4.21868
G1 F1387 X100.544 Y89.822 E4.22036
G1 F1613.2 X100.709 Y89.643 E4.22257
G1 F1929.3 X102.527 Y86.804 E4.24875
G1 F1937.7 X102.222 Y86.804 E4.25111
G1 F1929.3 X100.505 Y89.485 E4.27583
G1 F1644.4 X100.376 Y89.564 E4.27718
G1 F1638.1 X100.28 Y89.484 E4.2783
G1 F1912.6 X98.565 Y86.805 E4.30319
G1 F1920.9 X98.258 Y86.805 E4.30559
G1 F1912.6 X100.075 Y89.641 E4.33194
G1 F1613.2 X100.24 Y89.822 E4.33417
G1 F1387 X100.24 Y89.984 E4.33585
G1 F1619.4 X100.051 Y90.2 E4.33845
G1 F1929.3 X98.34 Y92.872 E4.36308
G1 F1937.7 X98.645 Y92.872 E4.36544
G1 F1929.3 X100.267 Y90.338 E4.3888
G1 F1619.4 X100.392 Y90.236 E4.39027
G1 F1625.6 X100.517 Y90.338 E4.39172
G1 F1929.3 X102.139 Y92.871 E4.41508
G1 X102.445 Y92.871 E4.41745
G0 F15000 X102.378 Y92.766
G1 F2700 E-2.08255
G1 F600 Z0.66
G0 F15000 X101.042 Y86.178 Z0.66
G1 F600 Z0.16
G1 F1200 E4.41745
G1 F2400 X103.853 Y84.964 E4.43699
G1 X101.042 Y83.746 E4.45654
G1 X101.042 Y84.544 E4.46163
G1 X101.011 Y84.62 E4.46215
G1 X100.936 Y84.65 E4.46267
G1 X97.93 Y84.65 E4.48185
G1 X97.93 Y85.278 E4.48586
G1 X100.936 Y85.278 E4.50504
G1 X101.011 Y85.308 E4.50555
G1 X101.042 Y85.384 E4.50607
G1 X101.042 Y86.178 E4.51114
G0 F15000 X101.156 Y86.129
G0 X101.254 Y85.856
;TYPE:WALL-INNER
G1 F2400 X103.319 Y84.964 E4.52549
G1 X101.254 Y84.069 E4.53985
G1 X101.254 Y84.544 E4.54288
G1 X101.16 Y84.77 E4.54445
G1 F2425.1 X100.936 Y84.86 E4.54597
G1 F2450.8 X98.14 Y84.86 E4.56348
G1 X98.14 Y85.068 E4.56478
G1 X100.936 Y85.068 E4.58228
G1 F2425.1 X101.16 Y85.158 E4.58381
G1 F2400 X101.254 Y85.384 E4.58537
G1 X101.254 Y85.856 E4.58838
G0 F15000 X101.466 Y85.534
G1 F2400 X102.784 Y84.964 E4.59754
G1 X101.466 Y84.392 E4.60671
G1 X101.41 Y84.783 E4.60923
G1 X101.31 Y84.921 E4.61032
G1 X101.203 Y84.964 E4.61105
G1 X101.31 Y85.007 E4.61179
G1 X101.41 Y85.145 E4.61288
G1 X101.466 Y85.534 E4.61538
G0 F15000 X101.654 Y85.203
;TYPE:SKIN
G1 F2422.8 X102.206 Y84.963 E4.62167
G1 X101.657 Y84.722 E4.62793
G1 X101.559 Y84.964 E4.63066
G1 X101.654 Y85.203 E4.63334
G1 F2700 E-1.86666
G1 F600 Z0.66
G0 F15000 X125.266 Y136.966 Z0.66
;TYPE:WALL-OUTER
G1 F600 Z0.16
G1 F1200 E4.63334
G1 F2400 X124.934 Y136.926 E4.63548
G1 X124.623 Y136.801 E4.63762
G1 X124.373 Y136.635 E4.63953
G1 X124.099 Y136.345 E4.64208
G1 X123.809 Y135.825 E4.64588
G1 X123.63 Y135.167 E4.65023
G1 X123.55 Y134.353 E4.65545
G1 X123.542 Y133.552 E4.66056
G1 X123.602 Y132.674 E4.66617
G1 X123.793 Y131.871 E4.67144
G1 X124.067 Y131.342 E4.67524
G1 X124.253 Y131.128 E4.67705
G1 X124.519 Y130.913 E4.67923
G1 X125.011 Y130.705 E4.68264
G1 X125.266 Y130.686 E4.68427
G1 X125.691 Y130.753 E4.68702
G1 X126.204 Y131.027 E4.69073
G1 X126.419 Y131.237 E4.69264
G1 X126.731 Y131.744 E4.69644
G1 X126.943 Y132.386 E4.70076
G1 X127.102 Y133.456 E4.70766
G1 X127.067 Y134.492 E4.71427
G1 X126.942 Y135.289 E4.71942
G1 X126.657 Y136.051 E4.72461
G1 X126.44 Y136.375 E4.7271
G1 X126.186 Y136.628 E4.72939
G1 X125.756 Y136.875 E4.73255
G1 X125.266 Y136.966 E4.73573
G0 F15000 X125.142 Y136.952
G0 X125.681 Y137.523
G1 F2400 X125.964 Y137.447 E4.7376
G1 X126.367 Y137.267 E4.74042
G1 X126.682 Y137.05 E4.74286
G1 X127.085 Y136.621 E4.74661
G1 X127.469 Y135.914 E4.75175
G1 X127.64 Y135.349 E4.75551
G1 X127.758 Y134.494 E4.76102
G1 X127.793 Y133.492 E4.76742
G1 X127.691 Y132.571 E4.77333
G1 X127.507 Y131.829 E4.77821
G1 X127.178 Y131.158 E4.78298
G1 X126.871 Y130.775 E4.78611
G1 X126.559 Y130.508 E4.78873
G1 X126.088 Y130.248 E4.79216
G1 X125.597 Y130.117 E4.7954
G1 X125.249 Y130.087 E4.79763
G1 X124.795 Y130.133 E4.80054
G1 X124.354 Y130.277 E4.8035
G1 X123.914 Y130.548 E4.8068
G1 X123.637 Y130.822 E4.80929
G1 X123.384 Y131.176 E4.81206
G1 X123.184 Y131.572 E4.81489
G1 X122.957 Y132.393 E4.82033
G1 X122.862 Y133.128 E4.82506
G1 X122.854 Y134.112 E4.83134
G1 X122.938 Y135.151 E4.83799
G1 X123.145 Y135.988 E4.84349
G1 X123.348 Y136.416 E4.84651
G1 X123.737 Y136.937 E4.85066
G1 X124.141 Y137.261 E4.85396
G1 X124.58 Y137.465 E4.85705
G1 X125.22 Y137.565 E4.86119
G1 X125.681 Y137.523 E4.86414
G0 F15000 X125.801 Y137.491
G0 X125.902 Y137.251
;TYPE:WALL-INNER
G1 F2463.8 X126.263 Y137.08 E4.86663
G1 F2351.1 X126.542 Y136.887 E4.86883
G1 F2269.8 X126.905 Y136.491 E4.87244
G1 F2101.8 X127.256 Y135.825 E4.87785
G1 F2035.1 X127.416 Y135.3 E4.88192
G1 F2072.7 X127.533 Y134.475 E4.88799
G1 F2101.8 X127.567 Y133.509 E4.89494
G1 F2044.4 X127.464 Y132.611 E4.9016
G1 F1998.7 X127.29 Y131.908 E4.90705
G1 F2053.8 X126.987 Y131.279 E4.91218
G1 F2214.7 X126.716 Y130.924 E4.91525
G1 F2400 X126.438 Y130.682 E4.9176
G1 F2450.8 X126.009 Y130.444 E4.92067
G1 F2503.5 X125.562 Y130.321 E4.92351
G1 F2615.5 X125.251 Y130.29 E4.92536
G1 F2586.7 X124.838 Y130.336 E4.92783
G1 F2425.1 X124.445 Y130.474 E4.93047
G1 F2281.1 X124.05 Y130.721 E4.93358
G1 F2236.5 X123.805 Y130.964 E4.93593
G1 F2182.9 X123.575 Y131.291 E4.93871
G1 F2151.8 X123.392 Y131.653 E4.94156
G1 F2121.5 X123.179 Y132.438 E4.94736
G1 F2053.8 X123.091 Y133.143 E4.95258
G1 X123.08 Y134.104 E4.95964
G1 F2092 X123.161 Y135.115 E4.96697
G1 F2111.6 X123.356 Y135.913 E4.97285
G1 X123.542 Y136.299 E4.97592
G1 F2172.4 X123.896 Y136.783 E4.98011
G1 F2281.1 X124.255 Y137.077 E4.98321
G1 F2387.6 X124.642 Y137.261 E4.98595
G1 F2558.4 X125.226 Y137.361 E4.98952
G1 F2615.5 X125.902 Y137.251 E4.99356
G0 F15000 X125.809 Y137.073
G1 F2615.5 X125.235 Y137.168 E4.99699
G1 F2644.9 X124.83 Y137.106 E4.99939
G1 F2558.4 X124.535 Y136.99 E5.00129
G1 F2437.9 X124.241 Y136.801 E5.00349
G1 F2351.1 X123.912 Y136.45 E5.00662
G1 F2236.5 X123.595 Y135.884 E5.01103
G1 F2182.9 X123.405 Y135.184 E5.01607
G1 X123.328 Y134.355 E5.02186
G1 F2151.8 X123.318 Y133.537 E5.02762
G1 F2141.6 X123.381 Y132.646 E5.03394
G1 F2151.8 X123.589 Y131.779 E5.04022
G1 F2214.7 X123.903 Y131.2 E5.04474
G1 F2292.5 X124.101 Y130.975 E5.04673
G1 F2363.2 X124.376 Y130.756 E5.04901
G1 F2476.9 X124.896 Y130.528 E5.05253
G1 F2586.7 X125.283 Y130.485 E5.05485
G1 F2690.3 X125.742 Y130.559 E5.05752
G1 F2586.7 X126.321 Y130.853 E5.06139
G1 F2400 X126.586 Y131.103 E5.06372
G1 F2304 X126.95 Y131.699 E5.06834
G1 F2182.9 X127.18 Y132.393 E5.07342
G1 F2131.5 X127.324 Y133.431 E5.08087
G1 X127.287 Y134.54 E5.08875
G1 X127.154 Y135.368 E5.09471
G1 F2225.6 X126.851 Y136.146 E5.10041
G1 F2351.1 X126.592 Y136.524 E5.10339
G1 F2400 X126.293 Y136.81 E5.10603
G1 F2503.5 X125.809 Y137.073 E5.10941
G1 F2700 E-1.39059
G1 F600 Z0.66
G0 F15000 X129.85 Y131.338 Z0.66
;TYPE:WALL-OUTER
G1 F600 Z0.16
G1 F1200 E5.10941
G1 F2400 X130.058 Y131.282 E5.11078
G1 X130.248 Y131.146 E5.11228
G1 X130.394 Y130.905 E5.11407
G1 X130.401 Y130.645 E5.11573
G1 X130.286 Y130.422 E5.11733
G1 X130.133 Y130.286 E5.11864
G1 X129.858 Y130.192 E5.12049
G1 X129.553 Y130.216 E5.12245
G1 X129.423 Y130.282 E5.12338
G1 X129.22 Y130.52 E5.12537
G1 X129.171 Y130.685 E5.12647
G1 X129.185 Y130.917 E5.12795
G1 X129.267 Y131.09 E5.12918
G1 X129.493 Y131.285 E5.13108
G1 X129.657 Y131.338 E5.13218
G1 X129.85 Y131.338 E5.13341
G0 F15000 X129.97 Y131.306
G0 X129.822 Y131.126
;TYPE:WALL-INNER
G1 F2400 X129.966 Y131.087 E5.13436
G1 X130.089 Y130.999 E5.13533
G1 X130.184 Y130.843 E5.13649
G1 X130.187 Y130.694 E5.13744
G1 X130.024 Y130.472 E5.1392
G1 X129.831 Y130.407 E5.1405
G1 X129.556 Y130.452 E5.14228
G1 X129.411 Y130.623 E5.14371
G1 X129.395 Y130.864 E5.14525
G1 X129.44 Y130.959 E5.14592
G1 X129.599 Y131.096 E5.14726
G1 X129.822 Y131.126 E5.1487
G0 F15000 X129.726 Y130.894
G1 F1981 X129.916 Y130.838 E5.1502
G1 X129.954 Y130.748 E5.15094
G1 X129.905 Y130.677 E5.15159
G1 X129.692 Y130.651 E5.15322
G1 X129.618 Y130.735 E5.15407
G1 X129.629 Y130.815 E5.15468
G1 X129.726 Y130.894 E5.15563
G0 F15000 X129.775 Y130.806
G1 F2700 E-1.34437
G1 F600 Z0.66
G0 F15000 X129.781 Y130.805 Z0.66
G0 X134.378 Y137.378
;TYPE:WALL-OUTER
G1 F600 Z0.16
G1 F1200 E5.15563
G1 F2400 X134.378 Y130.278 E5.20093
G1 X133.686 Y130.278 E5.20535
G1 X133.685 Y136.691 E5.24627
G1 X133.599 Y136.777 E5.24704
G1 X132.648 Y136.778 E5.25311
G1 X132.979 Y137.378 E5.25748
G1 X134.378 Y137.378 E5.26641
G0 F15000 X134.378 Y137.253
G0 X134.151 Y137.123
;TYPE:WALL-INNER
G1 F1972.2 X134.152 Y130.504 E5.31681
G1 F2092 X133.912 Y130.504 E5.31854
G1 F2072.7 X133.909 Y136.73 E5.36389
G1 F1848.4 X133.865 Y136.891 E5.36524
G1 F2053.8 X133.634 Y136.978 E5.36705
G1 F2615.5 X132.992 Y136.981 E5.37084
G1 F2644.9 X133.099 Y137.175 E5.37213
G1 F2615.5 X133.65 Y137.174 E5.37538
G1 F2172.4 X134.151 Y137.123 E5.3789
G1 F2700 E-1.1211
G1 F600 Z0.66
G0 F15000 X143.794 Y135.582 Z0.66
;TYPE:WALL-OUTER
G1 F600 Z0.16
G1 F1200 E5.3789
G1 F2400 X144.292 Y135.482 E5.38214
G1 X144.784 Y135.221 E5.38569
G1 X145.079 Y134.927 E5.38835
G1 X145.312 Y134.515 E5.39137
G1 X145.419 Y134.113 E5.39402
G1 X145.498 Y133.298 E5.39925
G1 X145.498 Y130.278 E5.41852
G1 X144.81 Y130.278 E5.42291
G1 X144.806 Y133.328 E5.44237
G1 X144.711 Y134.191 E5.44791
G1 X144.593 Y134.453 E5.44974
